; generated by Slic3r 1.2.9 on 2015-07-09 at 09:37:40

; external perimeters extrusion width = 0.45mm
; perimeters extrusion width = 0.40mm
; infill extrusion width = 0.60mm
; solid infill extrusion width = 0.45mm
; top infill extrusion width = 0.60mm

M107
M190 S78 ; set bed temperature
M104 S225 ; set temperature
G28 ; home all axes
M203 X192 Y208 Z3 ; Speed limits to minimize skipped steps when moving really fast courtesy of forum.lulzbot.com user 1013
M109 S225 ; wait for temperature to be reached
G21 ; set units to millimeters
G90 ; use absolute coordinates
M82 ; use absolute distances for extrusion
G92 E0
G1 E-1.00000 F1500.00000
G92 E0
G1 Z0.300 F12000.000
G1 X70.034 Y62.023 F12000.000
G1 E1.00000 F1500.00000
M204 S1000
G1 X71.035 Y61.023 E1.02704 F1440.000
G1 X71.553 Y60.603 E1.03980
G1 X72.724 Y59.837 E1.06655
G1 X73.304 Y59.536 E1.07905
G1 X74.565 Y59.035 E1.10500
G1 X75.168 Y58.862 E1.11699
G1 X76.438 Y58.623 E1.14169
G1 X77.028 Y58.569 E1.15301
G1 X77.655 Y58.540 E1.16502
G1 X220.368 Y58.541 E3.89374
G1 X221.008 Y58.571 E3.90599 F1440.000
G1 X221.575 Y58.624 E3.91687
G1 X222.832 Y58.862 E3.94133
G1 X223.435 Y59.035 E3.95332
G1 X224.696 Y59.536 E3.97927
G1 X225.276 Y59.837 E3.99177
G1 X226.447 Y60.603 E4.01852
G1 X226.965 Y61.023 E4.03128
G1 X227.966 Y62.023 E4.05832
G1 X228.387 Y62.540 E4.07108
G1 X229.156 Y63.710 E4.09785
G1 X229.457 Y64.291 E4.11036
G1 X229.961 Y65.554 E4.13635
G1 X230.136 Y66.158 E4.14838
G1 X230.376 Y67.432 E4.17317
G1 X230.431 Y68.024 E4.18454
G1 X230.460 Y68.655 E4.19661
G1 X230.460 Y211.345 E6.92490
G1 X230.431 Y211.976 E6.93697
G1 X230.376 Y212.568 E6.94834
G1 X230.136 Y213.842 E6.97313
G1 X229.961 Y214.446 E6.98515
G1 X229.457 Y215.709 E7.01115
G1 X229.156 Y216.290 E7.02366
G1 X228.387 Y217.460 E7.05042
G1 X227.966 Y217.977 E7.06318
G1 X226.965 Y218.977 E7.09023
G1 X226.447 Y219.397 E7.10299
G1 X225.276 Y220.163 E7.12974
G1 X224.696 Y220.464 E7.14224
G1 X223.435 Y220.965 E7.16818
G1 X222.832 Y221.138 E7.18018
G1 X221.562 Y221.377 E7.20488
G1 X220.972 Y221.431 E7.21620
G1 X220.345 Y221.460 E7.22820
G1 X77.655 Y221.460 E9.95649
G1 X77.028 Y221.431 E9.96849
G1 X76.438 Y221.377 E9.97981
G1 X75.168 Y221.138 E10.00451
G1 X74.565 Y220.965 E10.01651
G1 X73.304 Y220.464 E10.04246
G1 X72.724 Y220.163 E10.05495
G1 X71.553 Y219.397 E10.08170
G1 X71.035 Y218.977 E10.09446
G1 X70.034 Y217.977 E10.12151
G1 X69.613 Y217.460 E10.13427
G1 X68.844 Y216.290 E10.16104
G1 X68.543 Y215.709 E10.17355
G1 X68.039 Y214.447 E10.19954
G1 X67.864 Y213.842 E10.21156
G1 X67.624 Y212.568 E10.23635
G1 X67.569 Y211.976 E10.24773
G1 X67.540 Y211.345 E10.25979
G1 X67.540 Y68.655 E12.98808
G1 X67.569 Y68.024 E13.00015
G1 X67.624 Y67.432 E13.01152
G1 X67.864 Y66.158 E13.03631
G1 X68.039 Y65.553 E13.04834
G1 X68.543 Y64.291 E13.07433
G1 X68.844 Y63.710 E13.08684
G1 X69.613 Y62.540 E13.11361
G1 X69.987 Y62.081 E13.12494
M204 S1100
G1 X70.325 Y62.356 F12000.000
M204 S1000
G1 X71.309 Y61.362 E13.15169 F1440.000
G1 X71.828 Y60.941 E13.16445
G1 X72.924 Y60.224 E13.18951
G1 X73.505 Y59.923 E13.20200
G1 X74.686 Y59.453 E13.22631
G1 X75.289 Y59.280 E13.23830
G1 X76.478 Y59.057 E13.26144
G1 X77.067 Y59.003 E13.27276
G1 X77.655 Y58.976 E13.28400
G1 X220.368 Y58.977 E16.01272
G1 X220.967 Y59.005 E16.02419 F1440.000
G1 X221.534 Y59.058 E16.03508
G1 X222.711 Y59.280 E16.05798
G1 X223.314 Y59.453 E16.06998
G1 X224.495 Y59.923 E16.09428
G1 X225.076 Y60.224 E16.10678
G1 X226.172 Y60.941 E16.13183
G1 X226.691 Y61.362 E16.14459
G1 X227.628 Y62.298 E16.16992
G1 X228.049 Y62.815 E16.18268
G1 X228.769 Y63.911 E16.20775
G1 X229.071 Y64.492 E16.22026
G1 X229.543 Y65.674 E16.24461
G1 X229.717 Y66.279 E16.25663
G1 X229.942 Y67.472 E16.27985
G1 X229.997 Y68.064 E16.29122
G1 X230.024 Y68.655 E16.30253
G1 X230.024 Y211.345 E19.03081
G1 X229.997 Y211.936 E19.04212
G1 X229.942 Y212.528 E19.05349
G1 X229.717 Y213.721 E19.07671
G1 X229.543 Y214.326 E19.08873
G1 X229.071 Y215.508 E19.11308
G1 X228.769 Y216.089 E19.12559
G1 X228.049 Y217.185 E19.15066
G1 X227.628 Y217.702 E19.16342
G1 X226.691 Y218.638 E19.18875
G1 X226.172 Y219.059 E19.20151
G1 X225.076 Y219.776 E19.22657
G1 X224.495 Y220.077 E19.23906
G1 X223.314 Y220.547 E19.26336
G1 X222.711 Y220.720 E19.27536
G1 X221.522 Y220.943 E19.29849
G1 X220.933 Y220.997 E19.30981
G1 X220.345 Y221.024 E19.32106
G1 X77.655 Y221.024 E22.04934
G1 X77.067 Y220.997 E22.06058
G1 X76.478 Y220.943 E22.07190
G1 X75.289 Y220.720 E22.09504
G1 X74.686 Y220.547 E22.10703
G1 X73.505 Y220.077 E22.13134
G1 X72.924 Y219.776 E22.14383
G1 X71.828 Y219.059 E22.16889
G1 X71.309 Y218.638 E22.18165
G1 X70.372 Y217.702 E22.20698
G1 X69.951 Y217.185 E22.21974
G1 X69.231 Y216.089 E22.24481
G1 X68.929 Y215.508 E22.25732
G1 X68.457 Y214.326 E22.28166
G1 X68.283 Y213.721 E22.29369
G1 X68.058 Y212.528 E22.31691
G1 X68.003 Y211.936 E22.32828
G1 X67.976 Y211.345 E22.33958
G1 X67.976 Y68.655 E25.06787
G1 X68.003 Y68.064 E25.07917
G1 X68.058 Y67.472 E25.09055
G1 X68.283 Y66.278 E25.11377
G1 X68.457 Y65.674 E25.12579
G1 X68.929 Y64.492 E25.15013
G1 X69.231 Y63.911 E25.16264
G1 X69.951 Y62.815 E25.18772
G1 X70.277 Y62.414 E25.19761
M204 S1100
G1 E24.19761 F1500.00000
G92 E0
G1 X89.941 Y99.495 F12000.000
G1 E1.00000 F1500.00000
M204 S1000
G1 X108.495 Y99.495 E1.35477 F2760.000
G1 X108.495 Y80.941 E1.70953
G1 X189.505 Y80.941 E3.25845 F2760.000
G1 X189.505 Y99.495 E3.61322
G1 X208.059 Y99.495 E3.96798
G1 X208.059 Y180.505 E5.51691
G1 X189.505 Y180.505 E5.87167
G1 X189.505 Y199.059 E6.22644
G1 X108.495 Y199.059 E7.77536
G1 X108.495 Y180.505 E8.13012
G1 X89.941 Y180.505 E8.48489
G1 X89.941 Y99.570 E10.03238
M204 S1100
G1 X90.377 Y99.931 F12000.000
M204 S1000
G1 X108.931 Y99.931 E10.38714 F2160.000
G1 X108.931 Y81.377 E10.74191
G1 X189.069 Y81.377 E12.27417 F2160.000
G1 X189.069 Y99.931 E12.62894
G1 X207.623 Y99.931 E12.98370
G1 X207.623 Y180.069 E14.51597
G1 X189.069 Y180.069 E14.87073
G1 X189.069 Y198.623 E15.22550
G1 X108.931 Y198.623 E16.75776
G1 X108.931 Y180.069 E17.11253
G1 X90.377 Y180.069 E17.46729
G1 X90.377 Y100.006 E18.99812
M204 S1100
G1 X90.377 Y99.431 F12000.000
G1 X93.184 Y98.308 F12000.000
M204 S1000
G1 X93.184 Y84.184 E19.26819 F2760.000
G1 X107.384 Y84.184 E19.53970 F2760.000
G1 X107.384 Y98.308 E19.80977
G1 X93.259 Y98.308 E20.07985
M204 S1100
G1 X93.620 Y97.873 F12000.000
M204 S1000
G1 X93.620 Y84.620 E20.33325 F2160.000
G1 X106.949 Y84.620 E20.58811 F2160.000
G1 X106.949 Y97.873 E20.84151
G1 X93.695 Y97.873 E21.09493
M204 S1100
G1 X93.120 Y97.873 F12000.000
G1 E20.09493 F1500.00000
G92 E0
G1 X190.616 Y97.873 F12000.000
G1 E1.00000 F1500.00000
M204 S1000
G1 X190.616 Y84.184 E1.26174 F2760.000
G1 X204.816 Y84.184 E1.53325 F2760.000
G1 X204.816 Y98.308 E1.80331
G1 X190.616 Y98.308 E2.07483
G1 X190.616 Y97.948 E2.08172
M204 S1100
G1 X191.051 Y97.873 F12000.000
M204 S1000
G1 X191.051 Y84.620 E2.33513 F2160.000
G1 X204.380 Y84.620 E2.58998 F2160.000
G1 X204.380 Y97.873 E2.84339
G1 X191.126 Y97.873 E3.09681
M204 S1100
G1 X190.551 Y97.873 F12000.000
G1 E2.09681 F1500.00000
G92 E0
G1 X191.126 Y181.692 F12000.000
G1 E1.00000 F1500.00000
M204 S1000
G1 X204.816 Y181.692 E1.26175 F2760.000
G1 X204.816 Y195.816 E1.53181
G1 X190.616 Y195.816 E1.80333
G1 X190.616 Y181.692 E2.07339
G1 X191.051 Y181.692 E2.08172 F2760.000
M204 S1100
G1 X191.051 Y182.127 F12000.000
M204 S1000
G1 X204.380 Y182.127 E2.33658 F2160.000
G1 X204.380 Y195.380 E2.58998
G1 X191.051 Y195.380 E2.84484
G1 X191.051 Y182.202 E3.09681
M204 S1100
G1 X191.051 Y181.627 F12000.000
G1 E2.09681 F1500.00000
G92 E0
G1 X107.384 Y182.202 F12000.000
G1 E1.00000 F1500.00000
M204 S1000
G1 X107.384 Y195.816 E1.26030 F2760.000
G1 X93.184 Y195.816 E1.53181
G1 X93.184 Y181.692 E1.80188
G1 X107.384 Y181.692 E2.07339 F2760.000
G1 X107.384 Y182.127 E2.08172
M204 S1100
G1 X106.949 Y182.127 F12000.000
M204 S1000
G1 X106.949 Y195.380 E2.33513 F2160.000
G1 X93.620 Y195.380 E2.58998
G1 X93.620 Y182.127 E2.84339
G1 X106.874 Y182.127 E3.09681 F2160.000
M204 S1100
G1 X107.449 Y182.127 F12000.000
G1 E2.09681 F1500.00000
G92 E0
G1 X222.903 Y129.998 F12000.000
G1 E1.00000 F1500.00000
M204 S1000
G1 X222.903 Y211.314 E2.55478 F2760.000
G1 X222.857 Y211.810 E2.56431
G1 X222.719 Y212.287 E2.57379
G1 X222.482 Y212.744 E2.58365
G1 X222.150 Y213.153 E2.59371
G1 X221.741 Y213.484 E2.60378
G1 X221.283 Y213.721 E2.61363
G1 X220.808 Y213.857 E2.62309
G1 X220.314 Y213.903 E2.63257
G1 X77.686 Y213.903 E5.35966
G1 X77.192 Y213.857 E5.36914
G1 X76.717 Y213.721 E5.37860
G1 X76.259 Y213.484 E5.38845
G1 X75.850 Y213.153 E5.39851
G1 X75.518 Y212.744 E5.40857
G1 X75.281 Y212.287 E5.41844
G1 X75.143 Y211.810 E5.42792
G1 X75.097 Y211.314 E5.43745
G1 X75.097 Y68.686 E8.16453
G1 X75.143 Y68.190 E8.17406
G1 X75.281 Y67.713 E8.18354
G1 X75.518 Y67.256 E8.19340
G1 X75.850 Y66.847 E8.20346
G1 X76.259 Y66.516 E8.21353
G1 X76.717 Y66.279 E8.22338
G1 X77.192 Y66.143 E8.23284
G1 X77.686 Y66.097 E8.24232
G1 X220.336 Y66.098 E10.96983
G1 X220.807 Y66.142 E10.97888 F2760.000
G1 X221.283 Y66.279 E10.98835
G1 X221.741 Y66.516 E10.99820
G1 X222.150 Y66.847 E11.00826
G1 X222.482 Y67.256 E11.01832
G1 X222.719 Y67.713 E11.02819
G1 X222.857 Y68.190 E11.03767
G1 X222.903 Y68.686 E11.04720
G1 X222.903 Y129.923 E12.21807
M204 S1100
G1 X223.338 Y129.923 F12000.000
M204 S1000
G1 X223.338 Y211.334 E13.77466 F2160.000
G1 X223.287 Y211.891 E13.78536
G1 X223.126 Y212.449 E13.79646
G1 X222.848 Y212.985 E13.80801
G1 X222.459 Y213.462 E13.81978
G1 X221.981 Y213.850 E13.83156
G1 X221.445 Y214.128 E13.84309
G1 X220.888 Y214.287 E13.85416
G1 X220.334 Y214.338 E13.86481
G1 X77.666 Y214.338 E16.59266
G1 X77.112 Y214.287 E16.60331
G1 X76.555 Y214.128 E16.61438
G1 X76.019 Y213.850 E16.62591
G1 X75.541 Y213.462 E16.63769
G1 X75.152 Y212.985 E16.64947
G1 X74.874 Y212.449 E16.66101
G1 X74.713 Y211.891 E16.67211
G1 X74.662 Y211.334 E16.68281
G1 X74.662 Y68.666 E19.41066
G1 X74.713 Y68.109 E19.42136
G1 X74.874 Y67.551 E19.43246
G1 X75.152 Y67.015 E19.44400
G1 X75.541 Y66.538 E19.45578
G1 X76.019 Y66.150 E19.46756
G1 X76.555 Y65.872 E19.47909
G1 X77.112 Y65.713 E19.49016
G1 X77.666 Y65.662 E19.50081
G1 X220.356 Y65.663 E22.22908
G1 X220.888 Y65.712 E22.23930 F2160.000
G1 X221.445 Y65.872 E22.25037
G1 X221.981 Y66.150 E22.26191
G1 X222.459 Y66.538 E22.27368
G1 X222.848 Y67.015 E22.28546
G1 X223.126 Y67.551 E22.29700
G1 X223.287 Y68.109 E22.30810
G1 X223.338 Y68.666 E22.31880
G1 X223.338 Y129.848 E23.48862
M204 S1100
G1 X222.905 Y130.173 F12000.000
G1 E22.48862 F1500.00000
G92 E0
G1 X190.060 Y98.526 F12000.000
G1 E1.00000 F1500.00000
M204 S1000
G1 X190.060 Y83.966 E1.59793 F1080.000
M204 S1100
G1 X190.406 Y83.708 F12000.000
M204 S1000
G1 X189.763 Y83.065 E1.61533 F2760.000
G1 X189.763 Y82.449 E1.62712
G1 X191.240 Y83.926 E1.66709
M204 S1100
G1 X191.856 Y83.926 F12000.000
M204 S1000
G1 X189.763 Y81.832 E1.72373 F2760.000
G1 X189.763 Y81.216 E1.73553
G1 X192.473 Y83.926 E1.80885
G1 X193.089 Y83.926 E1.82064
G1 X175.519 Y66.356 E2.29599
G1 X176.135 Y66.356 E2.30778
G1 X193.705 Y83.926 E2.78314
G1 X194.322 Y83.926 E2.79493
G1 X176.752 Y66.356 E3.27029
G1 X177.368 Y66.356 E3.28208
G1 X194.938 Y83.926 E3.75743
G1 X195.555 Y83.926 E3.76922
G1 X177.984 Y66.356 E4.24458
G1 X178.601 Y66.356 E4.25637
G1 X196.171 Y83.926 E4.73172
G1 X196.787 Y83.926 E4.74352
G1 X179.217 Y66.356 E5.21887
G1 X179.834 Y66.356 E5.23066
G1 X197.404 Y83.926 E5.70602
G1 X198.020 Y83.926 E5.71781
G1 X180.450 Y66.356 E6.19316
G1 X181.066 Y66.356 E6.20495
G1 X198.636 Y83.926 E6.68031
G1 X199.253 Y83.926 E6.69210
G1 X181.683 Y66.356 E7.16745
G1 X182.299 Y66.356 E7.17925
G1 X199.869 Y83.926 E7.65460
G1 X200.486 Y83.926 E7.66639
G1 X182.916 Y66.356 E8.14174
G1 X183.532 Y66.356 E8.15354
G1 X201.102 Y83.926 E8.62889
G1 X201.718 Y83.926 E8.64068
G1 X184.148 Y66.356 E9.11603
G1 X184.765 Y66.356 E9.12783
G1 X202.335 Y83.926 E9.60318
G1 X202.951 Y83.926 E9.61497
G1 X185.381 Y66.356 E10.09032
G1 X185.997 Y66.356 E10.10212
G1 X203.568 Y83.926 E10.57747
G1 X204.184 Y83.926 E10.58926
G1 X186.614 Y66.356 E11.06461
M204 S1100
G1 X174.902 Y66.356 F12000.000
M204 S1000
G1 X189.230 Y80.683 E11.45223 F2760.000
G1 X188.613 Y80.683 E11.46402
G1 X174.286 Y66.356 E11.85164
G1 X173.670 Y66.356 E11.86343
G1 X187.997 Y80.683 E12.25105
G1 X187.380 Y80.683 E12.26284
G1 X173.053 Y66.356 E12.65046
G1 X172.437 Y66.356 E12.66225
G1 X186.764 Y80.683 E13.04987
G1 X186.148 Y80.683 E13.06166
G1 X171.820 Y66.356 E13.44928
G1 X171.204 Y66.356 E13.46107
G1 X185.531 Y80.683 E13.84869
G1 X184.915 Y80.683 E13.86048
G1 X170.588 Y66.356 E14.24810
G1 X169.971 Y66.356 E14.25989
G1 X184.299 Y80.683 E14.64751
G1 X183.682 Y80.683 E14.65930
G1 X169.355 Y66.356 E15.04692
G1 X168.738 Y66.356 E15.05872
G1 X183.066 Y80.683 E15.44633
G1 X182.449 Y80.683 E15.45813
G1 X168.122 Y66.356 E15.84575
G1 X167.506 Y66.356 E15.85754
G1 X181.833 Y80.683 E16.24516
G1 X181.217 Y80.683 E16.25695
G1 X166.889 Y66.356 E16.64457
G1 X166.273 Y66.356 E16.65636
G1 X180.600 Y80.683 E17.04398
G1 X179.984 Y80.683 E17.05577
G1 X165.657 Y66.356 E17.44339
G1 X165.040 Y66.356 E17.45518
G1 X179.367 Y80.683 E17.84280
G1 X178.751 Y80.683 E17.85459
G1 X164.424 Y66.356 E18.24221
G1 X163.807 Y66.356 E18.25401
G1 X178.135 Y80.683 E18.64162
G1 X177.518 Y80.683 E18.65342
G1 X163.191 Y66.356 E19.04104
G1 X162.575 Y66.356 E19.05283
G1 X176.902 Y80.683 E19.44045
G1 X176.285 Y80.683 E19.45224
G1 X161.958 Y66.356 E19.83986
G1 X161.342 Y66.356 E19.85165
G1 X175.669 Y80.683 E20.23927
G1 X175.053 Y80.683 E20.25106
G1 X160.725 Y66.356 E20.63869
G1 X160.109 Y66.356 E20.65048
G1 X174.436 Y80.683 E21.03810
G1 X173.820 Y80.683 E21.04989
G1 X159.493 Y66.356 E21.43751
G1 X158.876 Y66.356 E21.44930
G1 X173.204 Y80.683 E21.83692
G1 X172.587 Y80.683 E21.84871
G1 X158.260 Y66.356 E22.23634
G1 X157.643 Y66.356 E22.24813
G1 X171.971 Y80.683 E22.63575
G1 X171.354 Y80.683 E22.64754
G1 X157.027 Y66.356 E23.03516
G1 X156.411 Y66.356 E23.04695
G1 X170.738 Y80.683 E23.43457
G1 X170.122 Y80.683 E23.44637
G1 X155.794 Y66.356 E23.83399
G1 X155.178 Y66.356 E23.84578
G1 X169.505 Y80.683 E24.23340
G1 X168.889 Y80.683 E24.24519
G1 X154.561 Y66.356 E24.63281
G1 X153.945 Y66.356 E24.64461
G1 X168.272 Y80.683 E25.03223
G1 X167.656 Y80.683 E25.04402
G1 X153.329 Y66.356 E25.43164
G1 X152.712 Y66.356 E25.44343
G1 X167.040 Y80.683 E25.83106
G1 X166.423 Y80.683 E25.84285
G1 X152.096 Y66.356 E26.23047
G1 X151.479 Y66.356 E26.24226
G1 X165.807 Y80.683 E26.62988
G1 X165.190 Y80.683 E26.64168
G1 X150.863 Y66.356 E27.02930
G1 X150.247 Y66.356 E27.04109
G1 X164.574 Y80.683 E27.42871
G1 X163.958 Y80.683 E27.44050
G1 X149.630 Y66.356 E27.82813
G1 X149.014 Y66.356 E27.83992
G1 X163.341 Y80.683 E28.22754
G1 X162.725 Y80.683 E28.23933
G1 X148.398 Y66.356 E28.62696
G1 X147.781 Y66.356 E28.63875
G1 X162.109 Y80.683 E29.02637
G1 X161.492 Y80.683 E29.03816
G1 X147.165 Y66.356 E29.42579
G1 X146.548 Y66.356 E29.43758
G1 X160.876 Y80.683 E29.82520
G1 X160.259 Y80.683 E29.83699
G1 X145.932 Y66.356 E30.22462
G1 X145.316 Y66.356 E30.23641
G1 X159.643 Y80.683 E30.62403
G1 X159.027 Y80.683 E30.63582
G1 X144.699 Y66.356 E31.02345
G1 X144.083 Y66.356 E31.03524
G1 X158.410 Y80.683 E31.42286
G1 X157.794 Y80.683 E31.43465
G1 X143.466 Y66.356 E31.82228
G1 X142.850 Y66.356 E31.83407
G1 X157.177 Y80.683 E32.22169
G1 X156.561 Y80.683 E32.23348
G1 X142.234 Y66.356 E32.62111
G1 X141.617 Y66.356 E32.63290
G1 X155.945 Y80.683 E33.02052
G1 X155.328 Y80.683 E33.03232
G1 X141.001 Y66.356 E33.41994
G1 X140.384 Y66.356 E33.43173
G1 X154.712 Y80.683 E33.81936
G1 X154.096 Y80.683 E33.83115
G1 X139.768 Y66.356 E34.21877
