; generated by Slic3r 1.2.9 on 2015-07-09 at 09:38:20

; external perimeters extrusion width = 0.45mm
; perimeters extrusion width = 0.40mm
; infill extrusion width = 0.60mm
; solid infill extrusion width = 0.45mm
; top infill extrusion width = 0.60mm

M107
M190 S78 ; set bed temperature
M104 S225 ; set temperature
G28 ; home all axes
M203 X192 Y208 Z3 ; Speed limits to minimize skipped steps when moving really fast courtesy of forum.lulzbot.com user 1013
M109 S225 ; wait for temperature to be reached
G21 ; set units to millimeters
G90 ; use absolute coordinates
M82 ; use absolute distances for extrusion
G92 E0
G1 E-1.00000 F1500.00000
G92 E0
G1 Z0.300 F12000.000
G1 X70.035 Y62.021 F12000.000
G1 E1.00000 F1500.00000
M204 S1000
G1 X71.036 Y61.022 E1.02704 F1440.000
G1 X71.554 Y60.602 E1.03979
G1 X72.725 Y59.836 E1.06654
G1 X73.305 Y59.536 E1.07904
G1 X74.566 Y59.035 E1.10498
G1 X75.169 Y58.861 E1.11697
G1 X76.438 Y58.623 E1.14167
G1 X77.028 Y58.569 E1.15299
G1 X77.655 Y58.540 E1.16499
G1 X220.372 Y58.542 E3.89378
G1 X221.014 Y58.572 E3.90607 F1440.000
G1 X221.577 Y58.625 E3.91688
G1 X222.831 Y58.861 E3.94129
G1 X223.434 Y59.035 E3.95328
G1 X224.695 Y59.536 E3.97923
G1 X225.275 Y59.836 E3.99172
G1 X226.446 Y60.602 E4.01847
G1 X226.964 Y61.022 E4.03123
G1 X227.965 Y62.021 E4.05826
G1 X228.386 Y62.539 E4.07102
G1 X229.155 Y63.709 E4.09779
G1 X229.456 Y64.289 E4.11030
G1 X229.961 Y65.552 E4.13629
G1 X230.135 Y66.156 E4.14832
G1 X230.376 Y67.431 E4.17312
G1 X230.430 Y68.024 E4.18451
G1 X230.460 Y68.655 E4.19658
G1 X230.460 Y211.345 E6.92487
G1 X230.431 Y211.972 E6.93687
G1 X230.377 Y212.562 E6.94819
G1 X230.139 Y213.831 E6.97288
G1 X229.965 Y214.434 E6.98487
G1 X229.464 Y215.695 E7.01082
G1 X229.164 Y216.275 E7.02331
G1 X228.398 Y217.446 E7.05006
G1 X227.978 Y217.964 E7.06282
G1 X226.979 Y218.965 E7.08986
G1 X226.461 Y219.386 E7.10262
G1 X225.291 Y220.155 E7.12938
G1 X224.711 Y220.456 E7.14189
G1 X223.448 Y220.961 E7.16788
G1 X222.844 Y221.135 E7.17991
G1 X221.569 Y221.376 E7.20472
G1 X220.976 Y221.430 E7.21610
G1 X220.345 Y221.460 E7.22817
G1 X77.655 Y221.460 E9.95646
G1 X77.024 Y221.430 E9.96853
G1 X76.431 Y221.376 E9.97992
G1 X75.156 Y221.135 E10.00472
G1 X74.552 Y220.961 E10.01675
G1 X73.289 Y220.456 E10.04275
G1 X72.709 Y220.155 E10.05525
G1 X71.539 Y219.386 E10.08202
G1 X71.021 Y218.965 E10.09478
G1 X70.022 Y217.964 E10.12181
G1 X69.602 Y217.446 E10.13457
G1 X68.836 Y216.275 E10.16132
G1 X68.536 Y215.695 E10.17381
G1 X68.035 Y214.434 E10.19976
G1 X67.861 Y213.831 E10.21175
G1 X67.623 Y212.562 E10.23645
G1 X67.569 Y211.972 E10.24776
G1 X67.540 Y211.345 E10.25976
G1 X67.540 Y68.655 E12.98805
G1 X67.570 Y68.024 E13.00013
G1 X67.624 Y67.431 E13.01151
G1 X67.865 Y66.156 E13.03631
G1 X68.039 Y65.552 E13.04834
G1 X68.543 Y64.289 E13.07433
G1 X68.845 Y63.709 E13.08684
G1 X69.614 Y62.539 E13.11361
G1 X69.988 Y62.079 E13.12494
M204 S1100
G1 X70.326 Y62.355 F12000.000
M204 S1000
G1 X71.310 Y61.361 E13.15169 F1440.000
G1 X71.829 Y60.940 E13.16444
G1 X72.925 Y60.223 E13.18950
G1 X73.505 Y59.923 E13.20199
G1 X74.686 Y59.453 E13.22629
G1 X75.289 Y59.280 E13.23828
G1 X76.478 Y59.057 E13.26141
G1 X77.067 Y59.003 E13.27273
G1 X77.655 Y58.976 E13.28397
G1 X220.372 Y58.977 E16.01277
G1 X220.973 Y59.005 E16.02428 F1440.000
G1 X221.536 Y59.058 E16.03508
G1 X222.711 Y59.280 E16.05794
G1 X223.314 Y59.453 E16.06994
G1 X224.495 Y59.923 E16.09424
G1 X225.075 Y60.223 E16.10673
G1 X226.171 Y60.940 E16.13178
G1 X226.690 Y61.361 E16.14454
G1 X227.627 Y62.296 E16.16986
G1 X228.048 Y62.814 E16.18262
G1 X228.768 Y63.910 E16.20769
G1 X229.070 Y64.490 E16.22020
G1 X229.542 Y65.673 E16.24455
G1 X229.717 Y66.277 E16.25658
G1 X229.942 Y67.471 E16.27981
G1 X229.997 Y68.064 E16.29119
G1 X230.024 Y68.655 E16.30250
G1 X230.024 Y211.345 E19.03079
G1 X229.997 Y211.933 E19.04203
G1 X229.943 Y212.522 E19.05334
G1 X229.720 Y213.711 E19.07647
G1 X229.547 Y214.314 E19.08847
G1 X229.077 Y215.495 E19.11276
G1 X228.777 Y216.075 E19.12526
G1 X228.059 Y217.171 E19.15031
G1 X227.639 Y217.690 E19.16307
G1 X226.704 Y218.627 E19.18839
G1 X226.186 Y219.048 E19.20115
G1 X225.090 Y219.768 E19.22622
G1 X224.510 Y220.070 E19.23873
G1 X223.327 Y220.542 E19.26308
G1 X222.723 Y220.717 E19.27511
G1 X221.529 Y220.942 E19.29833
G1 X220.936 Y220.997 E19.30972
G1 X220.345 Y221.024 E19.32103
G1 X77.655 Y221.024 E22.04931
G1 X77.064 Y220.997 E22.06062
G1 X76.471 Y220.942 E22.07201
G1 X75.277 Y220.717 E22.09524
G1 X74.673 Y220.542 E22.10726
G1 X73.490 Y220.070 E22.13161
G1 X72.910 Y219.768 E22.14412
G1 X71.814 Y219.048 E22.16919
G1 X71.296 Y218.627 E22.18195
G1 X70.361 Y217.690 E22.20727
G1 X69.940 Y217.171 E22.22003
G1 X69.223 Y216.075 E22.24508
G1 X68.923 Y215.495 E22.25758
G1 X68.453 Y214.314 E22.28187
G1 X68.280 Y213.711 E22.29387
G1 X68.057 Y212.522 E22.31700
G1 X68.003 Y211.933 E22.32831
G1 X67.976 Y211.345 E22.33956
G1 X67.976 Y68.655 E25.06784
G1 X68.003 Y68.064 E25.07915
G1 X68.058 Y67.471 E25.09054
G1 X68.283 Y66.277 E25.11376
G1 X68.458 Y65.673 E25.12579
G1 X68.930 Y64.490 E25.15014
G1 X69.232 Y63.910 E25.16265
G1 X69.952 Y62.814 E25.18772
G1 X70.278 Y62.413 E25.19761
M204 S1100
G1 E24.19761 F1500.00000
G92 E0
G1 X111.787 Y66.098 F12000.000
G1 E1.00000 F1500.00000
M204 S1000
G1 X220.340 Y66.099 E3.07556 F2760.000
G1 X220.807 Y66.142 E3.08453 F2760.000
G1 X221.283 Y66.279 E3.09400
G1 X221.741 Y66.516 E3.10385
G1 X222.149 Y66.847 E3.11391
G1 X222.481 Y67.255 E3.12397
G1 X222.719 Y67.713 E3.13384
G1 X222.857 Y68.190 E3.14332
G1 X222.903 Y68.686 E3.15286
G1 X222.903 Y211.314 E5.87994
G1 X222.857 Y211.808 E5.88942
G1 X222.721 Y212.283 E5.89888
G1 X222.484 Y212.741 E5.90873
G1 X222.153 Y213.149 E5.91879
G1 X221.745 Y213.481 E5.92885
G1 X221.287 Y213.719 E5.93871
G1 X220.810 Y213.857 E5.94819
G1 X220.314 Y213.903 E5.95773
G1 X77.686 Y213.903 E8.68481
G1 X77.190 Y213.857 E8.69435
G1 X76.713 Y213.719 E8.70383
G1 X76.255 Y213.481 E8.71369
G1 X75.847 Y213.149 E8.72376
G1 X75.516 Y212.741 E8.73382
G1 X75.279 Y212.283 E8.74367
G1 X75.143 Y211.808 E8.75312
G1 X75.097 Y211.314 E8.76260
G1 X75.097 Y68.686 E11.48969
G1 X75.143 Y68.190 E11.49922
G1 X75.281 Y67.713 E11.50871
G1 X75.519 Y67.255 E11.51857
G1 X75.851 Y66.847 E11.52863
G1 X76.259 Y66.516 E11.53869
G1 X76.717 Y66.279 E11.54854
G1 X77.192 Y66.143 E11.55800
G1 X77.686 Y66.097 E11.56748
G1 X111.712 Y66.098 E12.21807
M204 S1100
G1 X111.712 Y65.662 F12000.000
M204 S1000
G1 X220.360 Y65.663 E14.29545 F2160.000
G1 X220.888 Y65.712 E14.30559 F2160.000
G1 X221.445 Y65.872 E14.31666
G1 X221.980 Y66.149 E14.32819
G1 X222.459 Y66.537 E14.33997
G1 X222.847 Y67.015 E14.35174
G1 X223.126 Y67.551 E14.36329
G1 X223.287 Y68.108 E14.37439
G1 X223.338 Y68.666 E14.38510
G1 X223.338 Y211.334 E17.11294
G1 X223.287 Y211.888 E17.12359
G1 X223.128 Y212.445 E17.13466
G1 X222.851 Y212.980 E17.14619
G1 X222.463 Y213.459 E17.15796
G1 X221.985 Y213.847 E17.16974
G1 X221.449 Y214.126 E17.18128
G1 X220.892 Y214.287 E17.19238
G1 X220.334 Y214.338 E17.20309
G1 X77.666 Y214.338 E19.93094
G1 X77.108 Y214.287 E19.94165
G1 X76.551 Y214.126 E19.95275
G1 X76.015 Y213.847 E19.96429
G1 X75.537 Y213.459 E19.97607
G1 X75.149 Y212.980 E19.98785
G1 X74.872 Y212.445 E19.99937
G1 X74.713 Y211.888 E20.01044
G1 X74.662 Y211.334 E20.02109
G1 X74.662 Y68.666 E22.74894
G1 X74.713 Y68.108 E22.75965
G1 X74.874 Y67.551 E22.77075
G1 X75.153 Y67.015 E22.78229
G1 X75.541 Y66.537 E22.79407
G1 X76.020 Y66.149 E22.80584
G1 X76.555 Y65.872 E22.81737
G1 X77.112 Y65.713 E22.82844
G1 X77.666 Y65.662 E22.83909
G1 X111.637 Y65.662 E23.48862
M204 S1100
G1 X111.962 Y66.095 F12000.000
G1 X220.545 Y66.386 F12000.000
M204 S1000
G1 X222.613 Y68.454 E23.54458 F2760.000
G1 X222.645 Y69.102 E23.55699
G1 X219.899 Y66.356 E23.63127
G1 X219.283 Y66.356 E23.64306
G1 X222.645 Y69.718 E23.73402
G1 X222.645 Y70.335 E23.74581
G1 X218.666 Y66.356 E23.85344
G1 X218.050 Y66.356 E23.86523
G1 X222.645 Y70.951 E23.98954
G1 X222.645 Y71.567 E24.00133
G1 X217.434 Y66.356 E24.14232
G1 X216.817 Y66.356 E24.15411
G1 X222.645 Y72.184 E24.31177
G1 X222.645 Y72.800 E24.32357
G1 X216.201 Y66.356 E24.49790
G1 X215.584 Y66.356 E24.50970
G1 X222.645 Y73.417 E24.70071
G1 X222.645 Y74.033 E24.71250
G1 X214.968 Y66.356 E24.92019
G1 X214.352 Y66.356 E24.93198
G1 X222.645 Y74.649 E25.15635
G1 X222.645 Y75.266 E25.16814
G1 X213.735 Y66.356 E25.40919
G1 X213.119 Y66.356 E25.42098
G1 X222.645 Y75.882 E25.67870
G1 X222.645 Y76.499 E25.69049
G1 X212.503 Y66.356 E25.96489
G1 X211.886 Y66.356 E25.97668
G1 X222.645 Y77.115 E26.26775
G1 X222.645 Y77.731 E26.27954
G1 X211.270 Y66.356 E26.58729
G1 X210.653 Y66.356 E26.59908
G1 X222.645 Y78.348 E26.92351
G1 X222.645 Y78.964 E26.93530
G1 X210.037 Y66.356 E27.27640
G1 X209.421 Y66.356 E27.28819
G1 X222.645 Y79.581 E27.64597
G1 X222.645 Y80.197 E27.65776
G1 X208.804 Y66.356 E28.03222
G1 X208.188 Y66.356 E28.04401
G1 X222.645 Y80.813 E28.43514
G1 X222.645 Y81.430 E28.44693
G1 X207.571 Y66.356 E28.85474
G1 X206.955 Y66.356 E28.86653
G1 X222.645 Y82.046 E29.29101
G1 X222.645 Y82.662 E29.30280
G1 X206.339 Y66.356 E29.74396
G1 X205.722 Y66.356 E29.75575
G1 X222.645 Y83.279 E30.21359
G1 X222.645 Y83.895 E30.22538
G1 X205.106 Y66.356 E30.69989
G1 X204.489 Y66.356 E30.71168
G1 X222.645 Y84.512 E31.20287
G1 X222.645 Y85.128 E31.21466
G1 X203.873 Y66.356 E31.72253
G1 X203.257 Y66.356 E31.73432
G1 X222.645 Y85.744 E32.25886
G1 X222.645 Y86.361 E32.27065
G1 X202.640 Y66.356 E32.81187
G1 X202.024 Y66.356 E32.82366
G1 X222.645 Y86.977 E33.38155
G1 X222.645 Y87.594 E33.39334
G1 X201.407 Y66.356 E33.96791
G1 X200.791 Y66.356 E33.97971
G1 X222.645 Y88.210 E34.57095
G1 X222.645 Y88.826 E34.58274
G1 X200.175 Y66.356 E35.19066
G1 X199.558 Y66.356 E35.20246
G1 X222.645 Y89.443 E35.82705
G1 X222.645 Y90.059 E35.83885
G1 X198.942 Y66.356 E36.48012
G1 X198.325 Y66.356 E36.49191
G1 X222.645 Y90.676 E37.14986
G1 X222.645 Y91.292 E37.16165
G1 X197.709 Y66.356 E37.83628
G1 X197.093 Y66.356 E37.84807
G1 X222.645 Y91.908 E38.53938
G1 X222.645 Y92.525 E38.55117
G1 X196.476 Y66.356 E39.25915
G1 X195.860 Y66.356 E39.27094
G1 X222.645 Y93.141 E39.99560
G1 X222.645 Y93.757 E40.00739
G1 X195.244 Y66.356 E40.74872
G1 X194.627 Y66.356 E40.76051
G1 X222.645 Y94.374 E41.51852
G1 X222.645 Y94.990 E41.53031
G1 X194.011 Y66.356 E42.30500
G1 X193.394 Y66.356 E42.31679
G1 X222.645 Y95.607 E43.10815
G1 X222.645 Y96.223 E43.11994
G1 X192.778 Y66.356 E43.92798
G1 X192.162 Y66.356 E43.93977
G1 X222.645 Y96.839 E44.76448
G1 X222.645 Y97.456 E44.77628
G1 X191.545 Y66.356 E45.61767
G1 X190.929 Y66.356 E45.62946
G1 X222.645 Y98.072 E46.48752
G1 X222.645 Y98.689 E46.49932
G1 X190.312 Y66.356 E47.37406
G1 X189.696 Y66.356 E47.38585
G1 X222.645 Y99.305 E48.27727
G1 X222.645 Y99.921 E48.28906
G1 X189.080 Y66.356 E49.19716
G1 X188.463 Y66.356 E49.20895
G1 X222.645 Y100.538 E50.13372
G1 X222.645 Y101.154 E50.14551
G1 X187.847 Y66.356 E51.08696
G1 X187.230 Y66.356 E51.09875
G1 X222.645 Y101.771 E52.05687
G1 X222.645 Y102.387 E52.06867
G1 X186.614 Y66.356 E53.04347
G1 X185.998 Y66.356 E53.05526
G1 X222.645 Y103.003 E54.04673
G1 X222.645 Y103.620 E54.05853
G1 X185.381 Y66.356 E55.06668
G1 X184.765 Y66.356 E55.07847
G1 X222.645 Y104.236 E56.10330
G1 X222.645 Y104.852 E56.11509
G1 X184.148 Y66.356 E57.15660
G1 X183.532 Y66.356 E57.16839
G1 X222.645 Y105.469 E58.22657
G1 X222.645 Y106.085 E58.23836
G1 X182.916 Y66.356 E59.31322
G1 X182.299 Y66.356 E59.32501
G1 X222.645 Y106.702 E60.41655
G1 X222.645 Y107.318 E60.42834
G1 X181.683 Y66.356 E61.53655
G1 X181.066 Y66.356 E61.54834
G1 X222.645 Y107.934 E62.67323
G1 X222.645 Y108.551 E62.68502
G1 X180.450 Y66.356 E63.82658
G1 X179.834 Y66.356 E63.83837
G1 X222.645 Y109.167 E64.99661
G1 X222.645 Y109.784 E65.00841
G1 X179.217 Y66.356 E66.18332
G1 X178.601 Y66.356 E66.19511
G1 X222.645 Y110.400 E67.38670
G1 X222.645 Y111.016 E67.39850
G1 X177.984 Y66.356 E68.60676
G1 X177.368 Y66.356 E68.61856
G1 X222.645 Y111.633 E69.84350
G1 X222.645 Y112.249 E69.85529
G1 X176.752 Y66.356 E71.09691
G1 X176.135 Y66.356 E71.10871
G1 X222.645 Y112.866 E72.36700
G1 X222.645 Y113.482 E72.37879
G1 X175.519 Y66.356 E73.65377
G1 X174.903 Y66.356 E73.66556
G1 X222.645 Y114.098 E74.95721
G1 X222.645 Y114.715 E74.96900
G1 X174.286 Y66.356 E76.27733
G1 X173.670 Y66.356 E76.28912
G1 X222.645 Y115.331 E77.61412
G1 X222.645 Y115.947 E77.62591
G1 X173.053 Y66.356 E78.96759
G1 X172.437 Y66.356 E78.97938
G1 X222.645 Y116.564 E80.33774
G1 X222.645 Y117.180 E80.34953
G1 X171.821 Y66.356 E81.72456
G1 X171.204 Y66.356 E81.73635
G1 X222.645 Y117.797 E83.12806
G1 X222.645 Y118.413 E83.13985
G1 X170.588 Y66.356 E84.54824
G1 X169.971 Y66.356 E84.56003
G1 X222.645 Y119.029 E85.98509
G1 X222.645 Y119.646 E85.99688
G1 X169.355 Y66.356 E87.43862
G1 X168.739 Y66.356 E87.45041
G1 X222.645 Y120.262 E88.90882
G1 X222.645 Y120.879 E88.92061
G1 X168.122 Y66.356 E90.39570
G1 X167.506 Y66.356 E90.40749
G1 X222.645 Y121.495 E91.89926
G1 X222.645 Y122.111 E91.91105
G1 X166.889 Y66.356 E93.41949
G1 X166.273 Y66.356 E93.43128
G1 X222.645 Y122.728 E94.95640
G1 X222.645 Y123.344 E94.96819
G1 X165.657 Y66.356 E96.50999
G1 X165.040 Y66.356 E96.52178
G1 X222.645 Y123.960 E98.08025
G1 X222.645 Y124.577 E98.09204
G1 X164.424 Y66.356 E99.66719
G1 X163.807 Y66.356 E99.67898
G1 X222.645 Y125.193 E101.27080
G1 X222.645 Y125.810 E101.28259
G1 X163.191 Y66.356 E102.89109
G1 X162.575 Y66.356 E102.90289
G1 X222.645 Y126.426 E104.52806
G1 X222.645 Y127.042 E104.53985
G1 X161.958 Y66.356 E106.18170
G1 X161.342 Y66.356 E106.19350
G1 X222.645 Y127.659 E107.85202
G1 X222.645 Y128.275 E107.86382
G1 X160.725 Y66.356 E109.53902
G1 X160.109 Y66.356 E109.55081
G1 X222.645 Y128.892 E111.24269
G1 X222.645 Y129.508 E111.25449
G1 X159.493 Y66.356 E112.96304
G1 X158.876 Y66.356 E112.97483
G1 X222.645 Y130.124 E114.70007
G1 X222.645 Y130.741 E114.71186
G1 X158.260 Y66.356 E116.45377
G1 X157.644 Y66.356 E116.46556
G1 X222.645 Y131.357 E118.22415
G1 X222.645 Y131.974 E118.23594
G1 X157.027 Y66.356 E120.01120
G1 X156.411 Y66.356 E120.02299
G1 X222.645 Y132.590 E121.81493
G1 X222.645 Y133.206 E121.82672
G1 X155.794 Y66.356 E123.63534
G1 X155.178 Y66.356 E123.64713
G1 X222.645 Y133.823 E125.47242
G1 X222.645 Y134.439 E125.48421
G1 X154.562 Y66.356 E127.32618
G1 X153.945 Y66.356 E127.33797
G1 X222.645 Y135.055 E129.19661
G1 X222.645 Y135.672 E129.20841
G1 X153.329 Y66.356 E131.08373
G1 X152.712 Y66.356 E131.09552
G1 X222.645 Y136.288 E132.98751
G1 X222.645 Y136.905 E132.99931
G1 X152.096 Y66.356 E134.90798
G1 X151.480 Y66.356 E134.91977
G1 X222.645 Y137.521 E136.84512
G1 X222.645 Y138.137 E136.85691
G1 X150.863 Y66.356 E138.79894
G1 X150.247 Y66.356 E138.81073
G1 X222.645 Y138.754 E140.76943
G1 X222.645 Y139.370 E140.78122
G1 X149.630 Y66.356 E142.75660
G1 X149.014 Y66.356 E142.76839
G1 X222.645 Y139.987 E144.76044
G1 X222.645 Y140.603 E144.77224
G1 X148.398 Y66.356 E146.78097
G1 X147.781 Y66.356 E146.79276
G1 X222.645 Y141.219 E148.81816
G1 X222.645 Y141.836 E148.82996
G1 X147.165 Y66.356 E150.87204
G1 X146.548 Y66.356 E150.88383
G1 X222.645 Y142.452 E152.94259
G1 X222.645 Y143.069 E152.95438
G1 X145.932 Y66.356 E155.02982
G1 X145.316 Y66.356 E155.04161
G1 X222.645 Y143.685 E157.13372
G1 X222.645 Y144.301 E157.14551
G1 X144.699 Y66.356 E159.25430
G1 X144.083 Y66.356 E159.26609
G1 X222.645 Y144.918 E161.39156
G1 X222.645 Y145.534 E161.40335
G1 X143.466 Y66.356 E163.54549
G1 X142.850 Y66.356 E163.55728
G1 X222.645 Y146.150 E165.71610
G1 X222.645 Y146.767 E165.72789
G1 X142.234 Y66.356 E167.90338
G1 X141.617 Y66.356 E167.91517
G1 X222.645 Y147.383 E170.10734
G1 X222.645 Y148.000 E170.11913
