; generated by Slic3r 1.2.9 on 2015-07-09 at 09:40:09

; external perimeters extrusion width = 0.45mm
; perimeters extrusion width = 0.40mm
; infill extrusion width = 0.60mm
; solid infill extrusion width = 0.45mm
; top infill extrusion width = 0.60mm

M107
M190 S78 ; set bed temperature
M104 S225 ; set temperature
G28 ; home all axes
M203 X192 Y208 Z3 ; Speed limits to minimize skipped steps when moving really fast courtesy of forum.lulzbot.com user 1013
M109 S225 ; wait for temperature to be reached
G21 ; set units to millimeters
G90 ; use absolute coordinates
M82 ; use absolute distances for extrusion
G92 E0
G1 E-1.00000 F1500.00000
G92 E0
G1 Z0.300 F12000.000
G1 X70.190 Y61.859 F12000.000
G1 E1.00000 F1500.00000
M204 S1000
G1 X70.518 Y61.513 E1.00913 F1440.000
G1 X71.170 Y60.909 E1.02611
G1 X71.397 Y60.725 E1.03170
G1 X72.164 Y60.185 E1.04963
G1 X72.678 Y59.872 E1.06114
G1 X73.573 Y59.412 E1.08038
G1 X74.428 Y59.090 E1.09785
G1 X75.551 Y58.777 E1.12013
G1 X76.408 Y58.632 E1.13676
G1 X76.798 Y58.591 E1.14426
G1 X77.501 Y58.554 E1.15772
G1 X220.345 Y58.547 E3.88894
G1 X220.964 Y58.575 E3.90079
G1 X221.487 Y58.622 E3.91082 F1440.000
G1 X222.565 Y58.807 E3.93174
G1 X223.581 Y59.088 E3.95189
G1 X224.407 Y59.405 E3.96881
G1 X225.256 Y59.835 E3.98701
G1 X225.741 Y60.123 E3.99778
G1 X226.286 Y60.482 E4.01026
G1 X227.101 Y61.147 E4.03039
G1 X227.377 Y61.409 E4.03765
G1 X228.052 Y62.130 E4.05655
G1 X228.623 Y62.866 E4.07434
G1 X229.145 Y63.688 E4.09297
G1 X229.506 Y64.400 E4.10824
G1 X229.868 Y65.290 E4.12661
G1 X230.121 Y66.130 E4.14337
G1 X230.207 Y66.491 E4.15047
G1 X230.356 Y67.367 E4.16747
G1 X230.416 Y67.945 E4.17857
G1 X230.453 Y68.655 E4.19216
G1 X230.456 Y210.572 E6.90566
G1 X230.453 Y211.373 E6.92098
G1 X230.411 Y212.103 E6.93497
G1 X230.338 Y212.756 E6.94752
G1 X230.062 Y214.065 E6.97311
G1 X229.868 Y214.681 E6.98545
G1 X229.334 Y215.928 E7.01139
G1 X229.028 Y216.484 E7.02353
G1 X228.271 Y217.587 E7.04910
G1 X227.868 Y218.068 E7.06110
G1 X226.918 Y218.999 E7.08654
G1 X226.429 Y219.393 E7.09854
G1 X225.318 Y220.124 E7.12397
G1 X224.762 Y220.417 E7.13598
G1 X223.531 Y220.920 E7.16141
G1 X222.930 Y221.100 E7.17341
G1 X221.679 Y221.350 E7.19780
G1 X221.065 Y221.415 E7.20961
G1 X220.345 Y221.453 E7.22338
G1 X77.628 Y221.453 E9.95218
G1 X76.870 Y221.417 E9.96670
G1 X76.371 Y221.367 E9.97628
G1 X75.348 Y221.173 E9.99618
G1 X74.826 Y221.033 E10.00652
G1 X74.062 Y220.781 E10.02190
G1 X73.705 Y220.639 E10.02925
G1 X72.741 Y220.166 E10.04978
G1 X71.749 Y219.538 E10.07223
G1 X70.855 Y218.815 E10.09422
G1 X70.238 Y218.198 E10.11089
G1 X69.586 Y217.409 E10.13046
G1 X69.281 Y216.983 E10.14048
G1 X68.934 Y216.447 E10.15269
G1 X68.481 Y215.574 E10.17150
G1 X68.328 Y215.221 E10.17886
G1 X68.058 Y214.496 E10.19366
G1 X67.790 Y213.498 E10.21340
G1 X67.641 Y212.616 E10.23050
G1 X67.583 Y212.042 E10.24154
G1 X67.547 Y211.345 E10.25488
G1 X67.551 Y68.655 E12.98317
G1 X67.582 Y68.004 E12.99562
G1 X67.637 Y67.428 E13.00669
G1 X67.791 Y66.495 E13.02477
G1 X67.877 Y66.131 E13.03192
G1 X68.140 Y65.275 E13.04904
G1 X68.297 Y64.861 E13.05750
G1 X68.619 Y64.140 E13.07260
G1 X68.768 Y63.853 E13.07879
G1 X69.284 Y63.012 E13.09765
G1 X69.588 Y62.587 E13.10764
G1 X70.142 Y61.917 E13.12427
M204 S1100
G1 X70.477 Y62.193 F12000.000
M204 S1000
G1 X70.834 Y61.812 E13.13426 F1440.000
G1 X71.445 Y61.247 E13.15016
G1 X71.672 Y61.063 E13.15575
G1 X72.390 Y60.557 E13.17254
G1 X72.904 Y60.245 E13.18405
G1 X73.578 Y59.888 E13.19863
G1 X74.554 Y59.507 E13.21867
G1 X75.650 Y59.201 E13.24043
G1 X76.453 Y59.065 E13.25600
G1 X76.844 Y59.024 E13.26350
G1 X77.502 Y58.989 E13.27611
G1 X220.345 Y58.983 E16.00731
G1 X220.925 Y59.009 E16.01841
G1 X221.447 Y59.056 E16.02844 F1440.000
G1 X222.457 Y59.230 E16.04803
G1 X223.441 Y59.500 E16.06753
G1 X224.227 Y59.801 E16.08363
G1 X225.034 Y60.210 E16.10092
G1 X225.518 Y60.497 E16.11170
G1 X226.029 Y60.834 E16.12339
G1 X226.802 Y61.463 E16.14245
G1 X227.077 Y61.725 E16.14971
G1 X227.727 Y62.420 E16.16789
G1 X228.261 Y63.109 E16.18456
G1 X228.768 Y63.908 E16.20266
G1 X229.107 Y64.575 E16.21696
G1 X229.456 Y65.430 E16.23463
G1 X229.698 Y66.230 E16.25061
G1 X229.783 Y66.591 E16.25770
G1 X229.923 Y67.412 E16.27362
G1 X229.983 Y67.990 E16.28473
G1 X230.017 Y68.655 E16.29746
G1 X230.020 Y210.570 E19.01092
G1 X230.017 Y211.371 E19.02625
G1 X229.978 Y212.055 E19.03934
G1 X229.905 Y212.708 E19.05189
G1 X229.647 Y213.934 E19.07586
G1 X229.452 Y214.549 E19.08820
G1 X228.952 Y215.718 E19.11249
G1 X228.646 Y216.274 E19.12463
G1 X227.938 Y217.307 E19.14859
G1 X227.534 Y217.788 E19.16059
G1 X226.645 Y218.660 E19.18441
G1 X226.156 Y219.054 E19.19642
G1 X225.115 Y219.739 E19.22024
G1 X224.559 Y220.031 E19.23224
G1 X223.406 Y220.502 E19.25606
G1 X222.805 Y220.682 E19.26806
G1 X221.633 Y220.917 E19.29091
G1 X221.019 Y220.982 E19.30271
G1 X220.345 Y221.017 E19.31561
G1 X77.630 Y221.017 E22.04438
G1 X76.898 Y220.982 E22.05840
G1 X76.430 Y220.935 E22.06737
G1 X75.461 Y220.752 E22.08624
G1 X74.938 Y220.612 E22.09658
G1 X74.223 Y220.376 E22.11098
G1 X73.866 Y220.234 E22.11833
G1 X72.963 Y219.791 E22.13756
G1 X71.994 Y219.178 E22.15949
G1 X71.156 Y218.500 E22.18009
G1 X70.562 Y217.907 E22.19615
G1 X69.940 Y217.156 E22.21479
G1 X69.635 Y216.730 E22.22481
G1 X69.310 Y216.228 E22.23624
G1 X68.881 Y215.401 E22.25406
G1 X68.728 Y215.048 E22.26142
G1 X68.470 Y214.355 E22.27554
G1 X68.214 Y213.398 E22.29448
G1 X68.075 Y212.572 E22.31050
G1 X68.016 Y211.998 E22.32154
G1 X67.983 Y211.345 E22.33404
G1 X67.987 Y68.655 E25.06232
G1 X68.016 Y68.045 E25.07399
G1 X68.071 Y67.469 E25.08505
G1 X68.215 Y66.595 E25.10199
G1 X68.301 Y66.231 E25.10914
G1 X68.547 Y65.429 E25.12518
G1 X68.704 Y65.016 E25.13364
G1 X69.006 Y64.341 E25.14777
G1 X69.155 Y64.053 E25.15397
G1 X69.638 Y63.266 E25.17163
G1 X69.942 Y62.841 E25.18162
G1 X70.429 Y62.251 E25.19624
M204 S1100
G1 E24.19624 F1500.00000
G92 E0
G1 X89.941 Y80.941 F12000.000
G1 E1.00000 F1500.00000
M204 S1000
G1 X208.059 Y80.941 E3.25845 F2760.000
G1 X208.059 Y199.059 E5.51691
G1 X89.941 Y199.059 E7.77536
G1 X89.941 Y81.016 E10.03238
M204 S1100
G1 X90.377 Y81.377 F12000.000
M204 S1000
G1 X207.623 Y81.377 E12.27417 F2160.000
G1 X207.623 Y198.623 E14.51597
G1 X90.377 Y198.623 E16.75776
G1 X90.377 Y81.452 E18.99812
M204 S1100
G1 X90.377 Y80.877 F12000.000
G1 E17.99812 F1500.00000
G92 E0
G1 X222.896 Y151.923 F12000.000
G1 E1.00000 F1500.00000
M204 S1000
G1 X222.896 Y211.307 E2.13544 F2760.000
G1 X222.835 Y211.856 E2.14599
G1 X222.682 Y212.342 E2.15575
G1 X222.440 Y212.780 E2.16530
G1 X222.123 Y213.158 E2.17475
G1 X221.738 Y213.469 E2.18420
G1 X221.300 Y213.699 E2.19366
G1 X220.824 Y213.842 E2.20316
G1 X220.309 Y213.896 E2.21306
G1 X77.678 Y213.896 E4.94022
G1 X77.256 Y213.860 E4.94831
G1 X76.814 Y213.742 E4.95706
G1 X76.544 Y213.635 E4.96262
G1 X76.042 Y213.319 E4.97395
G1 X75.709 Y212.981 E4.98303
G1 X75.445 Y212.612 E4.99170
G1 X75.273 Y212.243 E4.99949
G1 X75.155 Y211.806 E5.00815
G1 X75.104 Y211.310 E5.01767
G1 X75.108 Y68.687 E7.74466
G1 X75.155 Y68.191 E7.75420
G1 X75.220 Y67.917 E7.75959
G1 X75.348 Y67.582 E7.76644
G1 X75.456 Y67.373 E7.77094
G1 X75.704 Y67.026 E7.77908
G1 X75.969 Y66.747 E7.78646
G1 X76.125 Y66.620 E7.79030
G1 X76.656 Y66.311 E7.80204
G1 X77.253 Y66.141 E7.81391
G1 X77.549 Y66.110 E7.81960
G1 X220.314 Y66.104 E10.54931
G1 X220.744 Y66.143 E10.55755
G1 X221.326 Y66.305 E10.56911 F2760.000
G1 X221.857 Y66.605 E10.58077
G1 X222.158 Y66.873 E10.58848
G1 X222.371 Y67.114 E10.59462
G1 X222.597 Y67.466 E10.60262
G1 X222.780 Y67.924 E10.61205
G1 X222.844 Y68.192 E10.61732
G1 X222.896 Y68.690 E10.62690
G1 X222.896 Y151.848 E12.21691
M204 S1100
G1 X223.332 Y151.848 F12000.000
M204 S1000
G1 X223.332 Y211.331 E13.35425 F2160.000
G1 X223.263 Y211.946 E13.36607
G1 X223.084 Y212.514 E13.37746
G1 X222.801 Y213.027 E13.38866
G1 X222.429 Y213.471 E13.39973
G1 X221.978 Y213.834 E13.41081
G1 X221.466 Y214.104 E13.42188
G1 X220.910 Y214.271 E13.43297
G1 X220.332 Y214.332 E13.44408
G1 X77.663 Y214.332 E16.17196
G1 X77.170 Y214.288 E16.18143
G1 X76.677 Y214.157 E16.19119
G1 X76.351 Y214.027 E16.19788
G1 X75.767 Y213.659 E16.21109
G1 X75.369 Y213.254 E16.22194
G1 X75.079 Y212.849 E16.23147
G1 X74.867 Y212.400 E16.24097
G1 X74.724 Y211.878 E16.25131
G1 X74.668 Y211.333 E16.26179
G1 X74.672 Y68.667 E18.98961
G1 X74.724 Y68.120 E19.00011
G1 X74.803 Y67.788 E19.00662
G1 X74.949 Y67.403 E19.01450
G1 X75.083 Y67.145 E19.02007
G1 X75.367 Y66.748 E19.02939
G1 X75.673 Y66.426 E19.03788
G1 X75.874 Y66.263 E19.04283
G1 X76.361 Y65.967 E19.05373
G1 X76.506 Y65.901 E19.05677
G1 X77.170 Y65.712 E19.06999
G1 X77.526 Y65.675 E19.07683
G1 X220.334 Y65.668 E21.80735
G1 X220.822 Y65.713 E21.81673
G1 X221.475 Y65.895 E21.82969 F2160.000
G1 X221.634 Y65.967 E21.83303
G1 X222.097 Y66.241 E21.84331
G1 X222.214 Y66.327 E21.84609
G1 X222.471 Y66.570 E21.85285
G1 X222.720 Y66.850 E21.86000
G1 X222.986 Y67.265 E21.86945
G1 X223.197 Y67.792 E21.88028
G1 X223.275 Y68.119 E21.88672
G1 X223.332 Y68.668 E21.89726
G1 X223.332 Y151.773 E23.48627
M204 S1100
G1 X222.899 Y152.098 F12000.000
G1 X208.317 Y199.010 F12000.000
M204 S1000
G1 X222.123 Y212.816 E23.85975 F2760.000
G1 X222.368 Y212.445 E23.86825
G1 X208.317 Y198.393 E24.24837
G1 X208.317 Y197.777 E24.26016
G1 X222.543 Y212.003 E24.64500
G1 X222.628 Y211.472 E24.65529
G1 X208.317 Y197.161 E25.04243
G1 X208.317 Y196.544 E25.05422
G1 X222.638 Y210.866 E25.44163
G1 X222.638 Y210.249 E25.45342
G1 X208.317 Y195.928 E25.84084
G1 X208.317 Y195.312 E25.85263
G1 X222.638 Y209.633 E26.24004
G1 X222.638 Y209.017 E26.25183
G1 X208.317 Y194.696 E26.63924
G1 X208.317 Y194.079 E26.65103
G1 X222.638 Y208.400 E27.03845
G1 X222.638 Y207.784 E27.05024
G1 X208.317 Y193.463 E27.43765
G1 X208.317 Y192.847 E27.44944
G1 X222.638 Y207.168 E27.83685
G1 X222.638 Y206.551 E27.84864
G1 X208.317 Y192.230 E28.23606
G1 X208.317 Y191.614 E28.24784
G1 X222.638 Y205.935 E28.63526
G1 X222.638 Y205.319 E28.64705
G1 X208.317 Y190.998 E29.03446
G1 X208.317 Y190.381 E29.04625
G1 X222.638 Y204.702 E29.43366
G1 X222.638 Y204.086 E29.44545
G1 X208.317 Y189.765 E29.83287
G1 X208.317 Y189.149 E29.84466
G1 X222.638 Y203.470 E30.23207
G1 X222.638 Y202.853 E30.24386
G1 X208.317 Y188.532 E30.63127
G1 X208.317 Y187.916 E30.64306
G1 X222.638 Y202.237 E31.03048
G1 X222.638 Y201.621 E31.04227
G1 X208.317 Y187.300 E31.42968
G1 X208.317 Y186.683 E31.44147
G1 X222.638 Y201.004 E31.82888
G1 X222.638 Y200.388 E31.84067
G1 X208.317 Y186.067 E32.22809
G1 X208.317 Y185.451 E32.23988
G1 X222.638 Y199.772 E32.62729
G1 X222.638 Y199.155 E32.63908
G1 X208.317 Y184.834 E33.02649
G1 X208.317 Y184.218 E33.03828
G1 X222.638 Y198.539 E33.42570
G1 X222.638 Y197.923 E33.43748
G1 X208.317 Y183.602 E33.82490
G1 X208.317 Y182.985 E33.83669
G1 X222.638 Y197.307 E34.22410
G1 X222.638 Y196.690 E34.23589
G1 X208.317 Y182.369 E34.62330
G1 X208.317 Y181.753 E34.63509
G1 X222.638 Y196.074 E35.02251
G1 X222.638 Y195.458 E35.03430
G1 X208.317 Y181.136 E35.42171
G1 X208.317 Y180.520 E35.43350
G1 X222.638 Y194.841 E35.82091
G1 X222.638 Y194.225 E35.83270
G1 X208.317 Y179.904 E36.22012
G1 X208.317 Y179.287 E36.23191
G1 X222.638 Y193.609 E36.61932
G1 X222.638 Y192.992 E36.63111
G1 X208.317 Y178.671 E37.01852
G1 X208.317 Y178.055 E37.03031
G1 X222.638 Y192.376 E37.41773
G1 X222.638 Y191.760 E37.42952
G1 X208.317 Y177.438 E37.81693
G1 X208.317 Y176.822 E37.82872
G1 X222.638 Y191.143 E38.21613
G1 X222.638 Y190.527 E38.22792
G1 X208.317 Y176.206 E38.61534
G1 X208.317 Y175.589 E38.62712
G1 X222.638 Y189.911 E39.01454
G1 X222.638 Y189.294 E39.02633
G1 X208.317 Y174.973 E39.41374
G1 X208.317 Y174.357 E39.42553
G1 X222.638 Y188.678 E39.81294
G1 X222.638 Y188.062 E39.82473
G1 X208.317 Y173.740 E40.21215
G1 X208.317 Y173.124 E40.22394
G1 X222.638 Y187.445 E40.61135
G1 X222.638 Y186.829 E40.62314
G1 X208.317 Y172.508 E41.01055
G1 X208.317 Y171.892 E41.02234
G1 X222.638 Y186.213 E41.40976
G1 X222.638 Y185.596 E41.42155
G1 X208.317 Y171.275 E41.80896
G1 X208.317 Y170.659 E41.82075
G1 X222.638 Y184.980 E42.20816
G1 X222.638 Y184.364 E42.21995
G1 X208.317 Y170.043 E42.60737
G1 X208.317 Y169.426 E42.61916
G1 X222.638 Y183.747 E43.00657
G1 X222.638 Y183.131 E43.01836
G1 X208.317 Y168.810 E43.40577
G1 X208.317 Y168.194 E43.41756
G1 X222.638 Y182.515 E43.80497
G1 X222.638 Y181.898 E43.81676
G1 X208.317 Y167.577 E44.20418
G1 X208.317 Y166.961 E44.21597
G1 X222.638 Y181.282 E44.60338
G1 X222.638 Y180.666 E44.61517
G1 X208.317 Y166.345 E45.00258
G1 X208.317 Y165.728 E45.01437
G1 X222.638 Y180.049 E45.40179
G1 X222.638 Y179.433 E45.41358
G1 X208.317 Y165.112 E45.80099
G1 X208.317 Y164.496 E45.81278
G1 X222.638 Y178.817 E46.20019
G1 X222.638 Y178.200 E46.21198
G1 X208.317 Y163.879 E46.59940
G1 X208.317 Y163.263 E46.61119
G1 X222.638 Y177.584 E46.99860
G1 X222.638 Y176.968 E47.01039
G1 X208.317 Y162.647 E47.39780
G1 X208.317 Y162.030 E47.40959
G1 X222.638 Y176.351 E47.79701
G1 X222.638 Y175.735 E47.80880
G1 X208.317 Y161.414 E48.19621
G1 X208.317 Y160.798 E48.20800
G1 X222.638 Y175.119 E48.59541
G1 X222.638 Y174.502 E48.60720
G1 X208.317 Y160.181 E48.99461
G1 X208.317 Y159.565 E49.00640
G1 X222.638 Y173.886 E49.39382
G1 X222.638 Y173.270 E49.40561
G1 X208.317 Y158.949 E49.79302
G1 X208.317 Y158.332 E49.80481
G1 X222.638 Y172.654 E50.19222
G1 X222.638 Y172.037 E50.20401
G1 X208.317 Y157.716 E50.59143
G1 X208.317 Y157.100 E50.60322
G1 X222.638 Y171.421 E50.99063
G1 X222.638 Y170.805 E51.00242
G1 X208.317 Y156.483 E51.38983
G1 X208.317 Y155.867 E51.40162
G1 X222.638 Y170.188 E51.78904
G1 X222.638 Y169.572 E51.80083
G1 X208.317 Y155.251 E52.18824
G1 X208.317 Y154.634 E52.20003
G1 X222.638 Y168.956 E52.58744
G1 X222.638 Y168.339 E52.59923
G1 X208.317 Y154.018 E52.98665
G1 X208.317 Y153.402 E52.99843
G1 X222.638 Y167.723 E53.38585
G1 X222.638 Y167.107 E53.39764
G1 X208.317 Y152.785 E53.78505
G1 X208.317 Y152.169 E53.79684
G1 X222.638 Y166.490 E54.18425
G1 X222.638 Y165.874 E54.19604
G1 X208.317 Y151.553 E54.58346
G1 X208.317 Y150.936 E54.59525
G1 X222.638 Y165.258 E54.98266
G1 X222.638 Y164.641 E54.99445
G1 X208.317 Y150.320 E55.38186
G1 X208.317 Y149.704 E55.39365
G1 X222.638 Y164.025 E55.78107
G1 X222.638 Y163.409 E55.79286
G1 X208.317 Y149.087 E56.18027
G1 X208.317 Y148.471 E56.19206
G1 X222.638 Y162.792 E56.57947
G1 X222.638 Y162.176 E56.59126
G1 X208.317 Y147.855 E56.97868
G1 X208.317 Y147.239 E56.99047
G1 X222.638 Y161.560 E57.37788
G1 X222.638 Y160.943 E57.38967
G1 X208.317 Y146.622 E57.77708
G1 X208.317 Y146.006 E57.78887
G1 X222.638 Y160.327 E58.17629
G1 X222.638 Y159.711 E58.18807
G1 X208.317 Y145.390 E58.57549
G1 X208.317 Y144.773 E58.58728
G1 X222.638 Y159.094 E58.97469
G1 X222.638 Y158.478 E58.98648
G1 X208.317 Y144.157 E59.37389
G1 X208.317 Y143.541 E59.38568
G1 X222.638 Y157.862 E59.77310
G1 X222.638 Y157.245 E59.78489
G1 X208.317 Y142.924 E60.17230
G1 X208.317 Y142.308 E60.18409
G1 X222.638 Y156.629 E60.57150
G1 X222.638 Y156.013 E60.58329
G1 X208.317 Y141.692 E60.97071
G1 X208.317 Y141.075 E60.98250
G1 X222.638 Y155.396 E61.36991
G1 X222.638 Y154.780 E61.38170
G1 X208.317 Y140.459 E61.76911
G1 X208.317 Y139.843 E61.78090
G1 X222.638 Y154.164 E62.16832
G1 X222.638 Y153.547 E62.18011
G1 X208.317 Y139.226 E62.56752
G1 X208.317 Y138.610 E62.57931
G1 X222.638 Y152.931 E62.96672
G1 X222.638 Y152.315 E62.97851
G1 X208.317 Y137.994 E63.36593
G1 X208.317 Y137.377 E63.37771
G1 X222.638 Y151.698 E63.76513
G1 X222.638 Y151.082 E63.77692
G1 X208.317 Y136.761 E64.16433
G1 X208.317 Y136.145 E64.17612
G1 X222.638 Y150.466 E64.56353
G1 X222.638 Y149.850 E64.57532
