; generated by Slic3r 1.2.9 on 2015-07-09 at 09:37:34

; external perimeters extrusion width = 0.45mm
; perimeters extrusion width = 0.40mm
; infill extrusion width = 0.60mm
; solid infill extrusion width = 0.45mm
; top infill extrusion width = 0.60mm

M107
M190 S78 ; set bed temperature
M104 S225 ; set temperature
G28 ; home all axes
M203 X192 Y208 Z3 ; Speed limits to minimize skipped steps when moving really fast courtesy of forum.lulzbot.com user 1013
M109 S225 ; wait for temperature to be reached
G21 ; set units to millimeters
G90 ; use absolute coordinates
M82 ; use absolute distances for extrusion
G92 E0
G1 E-1.00000 F1500.00000
G92 E0
G1 Z0.300 F12000.000
G1 X70.034 Y62.023 F12000.000
G1 E1.00000 F1500.00000
M204 S1000
G1 X71.035 Y61.023 E1.02704 F1440.000
G1 X71.553 Y60.603 E1.03980
G1 X72.724 Y59.837 E1.06655
G1 X73.304 Y59.536 E1.07905
G1 X74.565 Y59.035 E1.10500
G1 X75.168 Y58.862 E1.11699
G1 X76.438 Y58.623 E1.14169
G1 X77.028 Y58.569 E1.15301
G1 X77.655 Y58.540 E1.16502
G1 X220.368 Y58.541 E3.89374
G1 X221.008 Y58.571 E3.90599 F1440.000
G1 X221.575 Y58.624 E3.91687
G1 X222.832 Y58.862 E3.94133
G1 X223.435 Y59.035 E3.95332
G1 X224.696 Y59.536 E3.97927
G1 X225.276 Y59.837 E3.99177
G1 X226.447 Y60.603 E4.01852
G1 X226.965 Y61.023 E4.03128
G1 X227.966 Y62.023 E4.05832
G1 X228.387 Y62.540 E4.07108
G1 X229.156 Y63.710 E4.09785
G1 X229.457 Y64.291 E4.11036
G1 X229.961 Y65.554 E4.13635
G1 X230.136 Y66.158 E4.14838
G1 X230.376 Y67.432 E4.17317
G1 X230.431 Y68.024 E4.18454
G1 X230.460 Y68.655 E4.19661
G1 X230.460 Y211.345 E6.92490
G1 X230.431 Y211.976 E6.93697
G1 X230.376 Y212.568 E6.94834
G1 X230.136 Y213.842 E6.97313
G1 X229.961 Y214.446 E6.98515
G1 X229.457 Y215.709 E7.01115
G1 X229.156 Y216.290 E7.02366
G1 X228.387 Y217.460 E7.05042
G1 X227.966 Y217.977 E7.06318
G1 X226.965 Y218.977 E7.09023
G1 X226.447 Y219.397 E7.10299
G1 X225.276 Y220.163 E7.12974
G1 X224.696 Y220.464 E7.14224
G1 X223.435 Y220.965 E7.16818
G1 X222.832 Y221.138 E7.18018
G1 X221.562 Y221.377 E7.20488
G1 X220.972 Y221.431 E7.21620
G1 X220.345 Y221.460 E7.22820
G1 X77.655 Y221.460 E9.95649
G1 X77.028 Y221.431 E9.96849
G1 X76.438 Y221.377 E9.97981
G1 X75.168 Y221.138 E10.00451
G1 X74.565 Y220.965 E10.01651
G1 X73.304 Y220.464 E10.04246
G1 X72.724 Y220.163 E10.05495
G1 X71.553 Y219.397 E10.08170
G1 X71.035 Y218.977 E10.09446
G1 X70.034 Y217.977 E10.12151
G1 X69.613 Y217.460 E10.13427
G1 X68.844 Y216.290 E10.16104
G1 X68.543 Y215.709 E10.17355
G1 X68.039 Y214.447 E10.19954
G1 X67.864 Y213.842 E10.21156
G1 X67.624 Y212.568 E10.23635
G1 X67.569 Y211.976 E10.24773
G1 X67.540 Y211.345 E10.25979
G1 X67.540 Y68.655 E12.98808
G1 X67.569 Y68.024 E13.00015
G1 X67.624 Y67.432 E13.01152
G1 X67.864 Y66.158 E13.03631
G1 X68.039 Y65.553 E13.04834
G1 X68.543 Y64.291 E13.07433
G1 X68.844 Y63.710 E13.08684
G1 X69.613 Y62.540 E13.11361
G1 X69.987 Y62.081 E13.12494
M204 S1100
G1 X70.325 Y62.356 F12000.000
M204 S1000
G1 X71.309 Y61.362 E13.15169 F1440.000
G1 X71.828 Y60.941 E13.16445
G1 X72.924 Y60.224 E13.18951
G1 X73.505 Y59.923 E13.20200
G1 X74.686 Y59.453 E13.22631
G1 X75.289 Y59.280 E13.23830
G1 X76.478 Y59.057 E13.26144
G1 X77.067 Y59.003 E13.27276
G1 X77.655 Y58.976 E13.28400
G1 X220.368 Y58.977 E16.01272
G1 X220.967 Y59.005 E16.02419 F1440.000
G1 X221.534 Y59.058 E16.03508
G1 X222.711 Y59.280 E16.05798
G1 X223.314 Y59.453 E16.06998
G1 X224.495 Y59.923 E16.09428
G1 X225.076 Y60.224 E16.10678
G1 X226.172 Y60.941 E16.13183
G1 X226.691 Y61.362 E16.14459
G1 X227.628 Y62.298 E16.16992
G1 X228.049 Y62.815 E16.18268
G1 X228.769 Y63.911 E16.20775
G1 X229.071 Y64.492 E16.22026
G1 X229.543 Y65.674 E16.24461
G1 X229.717 Y66.279 E16.25663
G1 X229.942 Y67.472 E16.27985
G1 X229.997 Y68.064 E16.29122
G1 X230.024 Y68.655 E16.30253
G1 X230.024 Y211.345 E19.03081
G1 X229.997 Y211.936 E19.04212
G1 X229.942 Y212.528 E19.05349
G1 X229.717 Y213.721 E19.07671
G1 X229.543 Y214.326 E19.08873
G1 X229.071 Y215.508 E19.11308
G1 X228.769 Y216.089 E19.12559
G1 X228.049 Y217.185 E19.15066
G1 X227.628 Y217.702 E19.16342
G1 X226.691 Y218.638 E19.18875
G1 X226.172 Y219.059 E19.20151
G1 X225.076 Y219.776 E19.22657
G1 X224.495 Y220.077 E19.23906
G1 X223.314 Y220.547 E19.26336
G1 X222.711 Y220.720 E19.27536
G1 X221.522 Y220.943 E19.29849
G1 X220.933 Y220.997 E19.30981
G1 X220.345 Y221.024 E19.32106
G1 X77.655 Y221.024 E22.04934
G1 X77.067 Y220.997 E22.06058
G1 X76.478 Y220.943 E22.07190
G1 X75.289 Y220.720 E22.09504
G1 X74.686 Y220.547 E22.10703
G1 X73.505 Y220.077 E22.13134
G1 X72.924 Y219.776 E22.14383
G1 X71.828 Y219.059 E22.16889
G1 X71.309 Y218.638 E22.18165
G1 X70.372 Y217.702 E22.20698
G1 X69.951 Y217.185 E22.21974
G1 X69.231 Y216.089 E22.24481
G1 X68.929 Y215.508 E22.25732
G1 X68.457 Y214.326 E22.28166
G1 X68.283 Y213.721 E22.29369
G1 X68.058 Y212.528 E22.31691
G1 X68.003 Y211.936 E22.32828
G1 X67.976 Y211.345 E22.33958
G1 X67.976 Y68.655 E25.06787
G1 X68.003 Y68.064 E25.07917
G1 X68.058 Y67.472 E25.09055
G1 X68.283 Y66.278 E25.11377
G1 X68.457 Y65.674 E25.12579
G1 X68.929 Y64.492 E25.15013
G1 X69.231 Y63.911 E25.16264
G1 X69.951 Y62.815 E25.18772
G1 X70.277 Y62.414 E25.19761
M204 S1100
G1 E24.19761 F1500.00000
G92 E0
G1 X89.941 Y99.495 F12000.000
G1 E1.00000 F1500.00000
M204 S1000
G1 X108.495 Y99.495 E1.35477 F2760.000
G1 X108.495 Y80.941 E1.70953
G1 X189.505 Y80.941 E3.25845 F2760.000
G1 X189.505 Y99.495 E3.61322
G1 X208.059 Y99.495 E3.96798
G1 X208.059 Y180.505 E5.51691
G1 X189.505 Y180.505 E5.87167
G1 X189.505 Y199.059 E6.22644
G1 X108.495 Y199.059 E7.77536
G1 X108.495 Y180.505 E8.13012
G1 X89.941 Y180.505 E8.48489
G1 X89.941 Y99.570 E10.03238
M204 S1100
G1 X90.377 Y99.931 F12000.000
M204 S1000
G1 X108.931 Y99.931 E10.38714 F2160.000
G1 X108.931 Y81.377 E10.74191
G1 X189.069 Y81.377 E12.27417 F2160.000
G1 X189.069 Y99.931 E12.62894
G1 X207.623 Y99.931 E12.98370
G1 X207.623 Y180.069 E14.51597
G1 X189.069 Y180.069 E14.87073
G1 X189.069 Y198.623 E15.22550
G1 X108.931 Y198.623 E16.75776
G1 X108.931 Y180.069 E17.11253
G1 X90.377 Y180.069 E17.46729
G1 X90.377 Y100.006 E18.99812
M204 S1100
G1 X90.377 Y99.431 F12000.000
G1 X93.184 Y98.308 F12000.000
M204 S1000
G1 X93.184 Y84.184 E19.26819 F2760.000
G1 X107.384 Y84.184 E19.53970 F2760.000
G1 X107.384 Y98.308 E19.80977
G1 X93.259 Y98.308 E20.07985
M204 S1100
G1 X93.620 Y97.873 F12000.000
M204 S1000
G1 X93.620 Y84.620 E20.33325 F2160.000
G1 X106.949 Y84.620 E20.58811 F2160.000
G1 X106.949 Y97.873 E20.84151
G1 X93.695 Y97.873 E21.09493
M204 S1100
G1 X93.120 Y97.873 F12000.000
G1 E20.09493 F1500.00000
G92 E0
G1 X190.616 Y97.873 F12000.000
G1 E1.00000 F1500.00000
M204 S1000
G1 X190.616 Y84.184 E1.26174 F2760.000
G1 X204.816 Y84.184 E1.53325 F2760.000
G1 X204.816 Y98.308 E1.80331
G1 X190.616 Y98.308 E2.07483
G1 X190.616 Y97.948 E2.08172
M204 S1100
G1 X191.051 Y97.873 F12000.000
M204 S1000
G1 X191.051 Y84.620 E2.33513 F2160.000
G1 X204.380 Y84.620 E2.58998 F2160.000
G1 X204.380 Y97.873 E2.84339
G1 X191.126 Y97.873 E3.09681
M204 S1100
G1 X190.551 Y97.873 F12000.000
G1 E2.09681 F1500.00000
G92 E0
G1 X191.126 Y181.692 F12000.000
G1 E1.00000 F1500.00000
M204 S1000
G1 X204.816 Y181.692 E1.26175 F2760.000
G1 X204.816 Y195.816 E1.53181
G1 X190.616 Y195.816 E1.80333
G1 X190.616 Y181.692 E2.07339
G1 X191.051 Y181.692 E2.08172 F2760.000
M204 S1100
G1 X191.051 Y182.127 F12000.000
M204 S1000
G1 X204.380 Y182.127 E2.33658 F2160.000
G1 X204.380 Y195.380 E2.58998
G1 X191.051 Y195.380 E2.84484
G1 X191.051 Y182.202 E3.09681
M204 S1100
G1 X191.051 Y181.627 F12000.000
G1 E2.09681 F1500.00000
G92 E0
G1 X107.384 Y182.202 F12000.000
G1 E1.00000 F1500.00000
M204 S1000
G1 X107.384 Y195.816 E1.26030 F2760.000
G1 X93.184 Y195.816 E1.53181
G1 X93.184 Y181.692 E1.80188
G1 X107.384 Y181.692 E2.07339 F2760.000
G1 X107.384 Y182.127 E2.08172
M204 S1100
G1 X106.949 Y182.127 F12000.000
M204 S1000
G1 X106.949 Y195.380 E2.33513 F2160.000
G1 X93.620 Y195.380 E2.58998
G1 X93.620 Y182.127 E2.84339
G1 X106.874 Y182.127 E3.09681 F2160.000
M204 S1100
G1 X107.449 Y182.127 F12000.000
G1 E2.09681 F1500.00000
G92 E0
G1 X222.903 Y189.672 F12000.000
G1 E1.00000 F1500.00000
M204 S1000
G1 X222.903 Y211.314 E1.41379 F2760.000
G1 X222.857 Y211.810 E1.42332
G1 X222.719 Y212.287 E1.43280
G1 X222.482 Y212.744 E1.44267
G1 X222.150 Y213.153 E1.45273
G1 X221.741 Y213.484 E1.46279
G1 X221.283 Y213.721 E1.47264
G1 X220.808 Y213.857 E1.48210
G1 X220.314 Y213.903 E1.49158
G1 X77.686 Y213.903 E4.21867
G1 X77.192 Y213.857 E4.22815
G1 X76.717 Y213.721 E4.23761
G1 X76.259 Y213.484 E4.24746
G1 X75.850 Y213.153 E4.25752
G1 X75.518 Y212.744 E4.26759
G1 X75.281 Y212.287 E4.27745
G1 X75.143 Y211.810 E4.28693
G1 X75.097 Y211.314 E4.29646
G1 X75.097 Y68.686 E7.02354
G1 X75.143 Y68.190 E7.03307
G1 X75.281 Y67.713 E7.04255
G1 X75.518 Y67.256 E7.05242
G1 X75.850 Y66.847 E7.06248
G1 X76.259 Y66.516 E7.07254
G1 X76.717 Y66.279 E7.08239
G1 X77.192 Y66.143 E7.09185
G1 X77.686 Y66.097 E7.10133
G1 X220.336 Y66.098 E9.82884
G1 X220.807 Y66.142 E9.83789 F2760.000
G1 X221.283 Y66.279 E9.84736
G1 X221.741 Y66.516 E9.85721
G1 X222.150 Y66.847 E9.86727
G1 X222.482 Y67.256 E9.87734
G1 X222.719 Y67.713 E9.88720
G1 X222.857 Y68.190 E9.89668
G1 X222.903 Y68.686 E9.90621
G1 X222.903 Y189.597 E12.21807
M204 S1100
G1 X223.338 Y189.597 F12000.000
M204 S1000
G1 X223.338 Y211.334 E12.63368 F2160.000
G1 X223.287 Y211.891 E12.64438
G1 X223.126 Y212.449 E12.65548
G1 X222.848 Y212.985 E12.66702
G1 X222.459 Y213.462 E12.67880
G1 X221.981 Y213.850 E12.69057
G1 X221.445 Y214.128 E12.70211
G1 X220.888 Y214.287 E12.71318
G1 X220.334 Y214.338 E12.72382
G1 X77.666 Y214.338 E15.45167
G1 X77.112 Y214.287 E15.46232
G1 X76.555 Y214.128 E15.47339
G1 X76.019 Y213.850 E15.48492
G1 X75.541 Y213.462 E15.49670
G1 X75.152 Y212.985 E15.50848
G1 X74.874 Y212.449 E15.52002
G1 X74.713 Y211.891 E15.53112
G1 X74.662 Y211.334 E15.54182
G1 X74.662 Y68.666 E18.26967
G1 X74.713 Y68.109 E18.28037
G1 X74.874 Y67.551 E18.29147
G1 X75.152 Y67.015 E18.30301
G1 X75.541 Y66.538 E18.31479
G1 X76.019 Y66.150 E18.32657
G1 X76.555 Y65.872 E18.33810
G1 X77.112 Y65.713 E18.34917
G1 X77.666 Y65.662 E18.35982
G1 X220.356 Y65.663 E21.08810
G1 X220.888 Y65.712 E21.09831 F2160.000
G1 X221.445 Y65.872 E21.10939
G1 X221.981 Y66.150 E21.12092
G1 X222.459 Y66.538 E21.13270
G1 X222.848 Y67.015 E21.14447
G1 X223.126 Y67.551 E21.15602
G1 X223.287 Y68.109 E21.16712
G1 X223.338 Y68.666 E21.17782
G1 X223.338 Y189.522 E23.48862
M204 S1100
G1 X222.905 Y189.847 F12000.000
G1 E22.48862 F1500.00000
G92 E0
G1 X190.060 Y196.034 F12000.000
G1 E1.00000 F1500.00000
M204 S1000
G1 X190.060 Y181.474 E1.59793 F1080.000
M204 S1100
G1 E0.59793 F1500.00000
G92 E0
G1 X107.940 Y181.474 F12000.000
G1 E1.00000 F1500.00000
M204 S1000
G1 X107.940 Y196.034 E1.59793 F1080.000
M204 S1100
G1 E0.59793 F1500.00000
G92 E0
G1 X107.940 Y98.526 F12000.000
G1 E1.00000 F1500.00000
M204 S1000
G1 X107.940 Y83.966 E1.59793 F1080.000
M204 S1100
G1 X107.929 Y99.237 F12000.000
M204 S1000
G1 X107.476 Y98.784 E1.61020 F2760.000
G1 X107.313 Y99.237 E1.61942
G1 X106.642 Y98.566 E1.63758
G1 X106.025 Y98.566 E1.64937
G1 X106.696 Y99.237 E1.66753
G1 X106.080 Y99.237 E1.67932
G1 X105.409 Y98.566 E1.69748
G1 X104.792 Y98.566 E1.70927
G1 X105.464 Y99.237 E1.72743
G1 X104.847 Y99.237 E1.73922
G1 X104.176 Y98.566 E1.75738
G1 X103.560 Y98.566 E1.76917
G1 X104.231 Y99.237 E1.78733
G1 X103.614 Y99.237 E1.79912
G1 X102.943 Y98.566 E1.81728
G1 X102.327 Y98.566 E1.82908
G1 X102.998 Y99.237 E1.84724
G1 X102.382 Y99.237 E1.85903
G1 X101.710 Y98.566 E1.87719
G1 X101.094 Y98.566 E1.88898
G1 X101.765 Y99.237 E1.90714
G1 X101.149 Y99.237 E1.91893
G1 X100.478 Y98.566 E1.93709
G1 X99.861 Y98.566 E1.94888
G1 X100.532 Y99.237 E1.96704
G1 X99.916 Y99.237 E1.97883
G1 X99.245 Y98.566 E1.99699
G1 X98.628 Y98.566 E2.00879
G1 X99.300 Y99.237 E2.02695
G1 X98.683 Y99.237 E2.03874
G1 X98.012 Y98.566 E2.05690
G1 X97.396 Y98.566 E2.06869
G1 X98.067 Y99.237 E2.08685
G1 X97.451 Y99.237 E2.09864
G1 X96.779 Y98.566 E2.11680
G1 X96.163 Y98.566 E2.12859
G1 X96.834 Y99.237 E2.14675
G1 X96.218 Y99.237 E2.15854
G1 X95.547 Y98.566 E2.17670
G1 X94.930 Y98.566 E2.18850
G1 X95.601 Y99.237 E2.20666
G1 X94.985 Y99.237 E2.21845
G1 X94.314 Y98.566 E2.23661
G1 X93.697 Y98.566 E2.24840
G1 X94.369 Y99.237 E2.26656
G1 X93.752 Y99.237 E2.27835
G1 X93.081 Y98.566 E2.29651
M204 S1100
G1 E1.29651 F1500.00000
G92 E0
G1 X75.355 Y167.135 F12000.000
G1 E1.00000 F1500.00000
M204 S1000
G1 X92.926 Y184.706 E1.47537 F2760.000
G1 X92.926 Y185.322 E1.48717
G1 X75.355 Y167.751 E1.96254
G1 X75.355 Y168.368 E1.97433
G1 X92.926 Y185.938 E2.44970
G1 X92.926 Y186.555 E2.46150
G1 X75.355 Y168.984 E2.93687
G1 X75.355 Y169.600 E2.94866
G1 X92.926 Y187.171 E3.42404
G1 X92.926 Y187.788 E3.43583
G1 X75.355 Y170.217 E3.91120
G1 X75.355 Y170.833 E3.92299
G1 X92.926 Y188.404 E4.39837
G1 X92.926 Y189.020 E4.41016
G1 X75.355 Y171.450 E4.88553
G1 X75.355 Y172.066 E4.89732
G1 X92.926 Y189.637 E5.37270
G1 X92.926 Y190.253 E5.38449
G1 X75.355 Y172.682 E5.85986
G1 X75.355 Y173.299 E5.87165
G1 X92.926 Y190.870 E6.34703
G1 X92.926 Y191.486 E6.35882
G1 X75.355 Y173.915 E6.83419
G1 X75.355 Y174.531 E6.84599
G1 X92.926 Y192.102 E7.32136
G1 X92.926 Y192.719 E7.33315
G1 X75.355 Y175.148 E7.80852
G1 X75.355 Y175.764 E7.82032
G1 X92.926 Y193.335 E8.29569
G1 X92.926 Y193.952 E8.30748
G1 X75.355 Y176.381 E8.78286
G1 X75.355 Y176.997 E8.79465
G1 X92.926 Y194.568 E9.27002
G1 X92.926 Y195.184 E9.28181
G1 X75.355 Y177.613 E9.75719
G1 X75.355 Y178.230 E9.76898
G1 X92.926 Y195.801 E10.24435
M204 S1100
G1 X106.760 Y196.074 F12000.000
M204 S1000
G1 X108.237 Y197.552 E10.28433 F2760.000
G1 X108.237 Y198.168 E10.29612
G1 X106.143 Y196.074 E10.35277
G1 X105.527 Y196.074 E10.36456
G1 X108.237 Y198.784 E10.43789
G1 X108.154 Y199.317 E10.44821
G1 X122.482 Y213.645 E10.83584
G1 X123.098 Y213.645 E10.84763
G1 X108.770 Y199.317 E11.23527
G1 X108.237 Y199.401 E11.24558
G1 X104.911 Y196.074 E11.33559
G1 X104.294 Y196.074 E11.34738
G1 X121.865 Y213.645 E11.82275
G1 X121.249 Y213.645 E11.83455
G1 X103.678 Y196.074 E12.30992
G1 X103.062 Y196.074 E12.32171
G1 X120.632 Y213.645 E12.79709
G1 X120.016 Y213.645 E12.80888
G1 X102.445 Y196.074 E13.28425
G1 X101.829 Y196.074 E13.29604
G1 X119.400 Y213.645 E13.77142
G1 X118.783 Y213.645 E13.78321
G1 X101.212 Y196.074 E14.25858
G1 X100.596 Y196.074 E14.27037
G1 X118.167 Y213.645 E14.74575
G1 X117.550 Y213.645 E14.75754
G1 X99.980 Y196.074 E15.23291
G1 X99.363 Y196.074 E15.24470
G1 X116.934 Y213.645 E15.72008
G1 X116.318 Y213.645 E15.73187
G1 X98.747 Y196.074 E16.20724
G1 X98.130 Y196.074 E16.21903
G1 X115.701 Y213.645 E16.69441
G1 X115.085 Y213.645 E16.70620
G1 X97.514 Y196.074 E17.18157
G1 X96.898 Y196.074 E17.19337
G1 X114.469 Y213.645 E17.66874
G1 X113.852 Y213.645 E17.68053
G1 X96.281 Y196.074 E18.15590
G1 X95.665 Y196.074 E18.16770
G1 X113.236 Y213.645 E18.64307
G1 X112.619 Y213.645 E18.65486
G1 X95.049 Y196.074 E19.13023
G1 X94.432 Y196.074 E19.14203
G1 X112.003 Y213.645 E19.61740
G1 X111.387 Y213.645 E19.62919
G1 X93.816 Y196.074 E20.10457
G1 X93.199 Y196.074 E20.11636
G1 X110.770 Y213.645 E20.59173
G1 X110.154 Y213.645 E20.60352
G1 X75.355 Y178.846 E21.54499
G1 X75.355 Y179.463 E21.55678
G1 X109.537 Y213.645 E22.48157
G1 X108.921 Y213.645 E22.49336
G1 X75.355 Y180.079 E23.40147
G1 X75.355 Y180.695 E23.41326
G1 X108.305 Y213.645 E24.30470
G1 X107.688 Y213.645 E24.31649
G1 X75.355 Y181.312 E25.19125
G1 X75.355 Y181.928 E25.20304
G1 X107.072 Y213.645 E26.06112
G1 X106.455 Y213.645 E26.07292
G1 X75.355 Y182.545 E26.91432
G1 X75.355 Y183.161 E26.92611
