; generated by Slic3r 1.2.9 on 2015-07-09 at 09:38:31

; external perimeters extrusion width = 0.45mm
; perimeters extrusion width = 0.40mm
; infill extrusion width = 0.60mm
; solid infill extrusion width = 0.45mm
; top infill extrusion width = 0.60mm

M107
M190 S78 ; set bed temperature
M104 S225 ; set temperature
G28 ; home all axes
M203 X192 Y208 Z3 ; Speed limits to minimize skipped steps when moving really fast courtesy of forum.lulzbot.com user 1013
M109 S225 ; wait for temperature to be reached
G21 ; set units to millimeters
G90 ; use absolute coordinates
M82 ; use absolute distances for extrusion
G92 E0
G1 E-1.00000 F1500.00000
G92 E0
G1 Z0.300 F12000.000
G1 X70.035 Y62.021 F12000.000
G1 E1.00000 F1500.00000
M204 S1000
G1 X71.036 Y61.022 E1.02704 F1440.000
G1 X71.554 Y60.602 E1.03979
G1 X72.725 Y59.836 E1.06654
G1 X73.305 Y59.536 E1.07904
G1 X74.566 Y59.035 E1.10498
G1 X75.169 Y58.861 E1.11697
G1 X76.438 Y58.623 E1.14167
G1 X77.028 Y58.569 E1.15299
G1 X77.655 Y58.540 E1.16499
G1 X220.372 Y58.542 E3.89378
G1 X221.014 Y58.572 E3.90607 F1440.000
G1 X221.577 Y58.625 E3.91688
G1 X222.831 Y58.861 E3.94129
G1 X223.434 Y59.035 E3.95328
G1 X224.695 Y59.536 E3.97923
G1 X225.275 Y59.836 E3.99172
G1 X226.446 Y60.602 E4.01847
G1 X226.964 Y61.022 E4.03123
G1 X227.965 Y62.021 E4.05826
G1 X228.386 Y62.539 E4.07102
G1 X229.155 Y63.709 E4.09779
G1 X229.456 Y64.289 E4.11030
G1 X229.961 Y65.552 E4.13629
G1 X230.135 Y66.156 E4.14832
G1 X230.376 Y67.431 E4.17312
G1 X230.430 Y68.024 E4.18451
G1 X230.460 Y68.655 E4.19658
G1 X230.460 Y211.345 E6.92487
G1 X230.431 Y211.972 E6.93687
G1 X230.377 Y212.562 E6.94819
G1 X230.139 Y213.831 E6.97288
G1 X229.965 Y214.434 E6.98487
G1 X229.464 Y215.695 E7.01082
G1 X229.164 Y216.275 E7.02331
G1 X228.398 Y217.446 E7.05006
G1 X227.978 Y217.964 E7.06282
G1 X226.979 Y218.965 E7.08986
G1 X226.461 Y219.386 E7.10262
G1 X225.291 Y220.155 E7.12938
G1 X224.711 Y220.456 E7.14189
G1 X223.448 Y220.961 E7.16788
G1 X222.844 Y221.135 E7.17991
G1 X221.569 Y221.376 E7.20472
G1 X220.976 Y221.430 E7.21610
G1 X220.345 Y221.460 E7.22817
G1 X77.655 Y221.460 E9.95646
G1 X77.024 Y221.430 E9.96853
G1 X76.431 Y221.376 E9.97992
G1 X75.156 Y221.135 E10.00472
G1 X74.552 Y220.961 E10.01675
G1 X73.289 Y220.456 E10.04275
G1 X72.709 Y220.155 E10.05525
G1 X71.539 Y219.386 E10.08202
G1 X71.021 Y218.965 E10.09478
G1 X70.022 Y217.964 E10.12181
G1 X69.602 Y217.446 E10.13457
G1 X68.836 Y216.275 E10.16132
G1 X68.536 Y215.695 E10.17381
G1 X68.035 Y214.434 E10.19976
G1 X67.861 Y213.831 E10.21175
G1 X67.623 Y212.562 E10.23645
G1 X67.569 Y211.972 E10.24776
G1 X67.540 Y211.345 E10.25976
G1 X67.540 Y68.655 E12.98805
G1 X67.570 Y68.024 E13.00013
G1 X67.624 Y67.431 E13.01151
G1 X67.865 Y66.156 E13.03631
G1 X68.039 Y65.552 E13.04834
G1 X68.543 Y64.289 E13.07433
G1 X68.845 Y63.709 E13.08684
G1 X69.614 Y62.539 E13.11361
G1 X69.988 Y62.079 E13.12494
M204 S1100
G1 X70.326 Y62.355 F12000.000
M204 S1000
G1 X71.310 Y61.361 E13.15169 F1440.000
G1 X71.829 Y60.940 E13.16444
G1 X72.925 Y60.223 E13.18950
G1 X73.505 Y59.923 E13.20199
G1 X74.686 Y59.453 E13.22629
G1 X75.289 Y59.280 E13.23828
G1 X76.478 Y59.057 E13.26141
G1 X77.067 Y59.003 E13.27273
G1 X77.655 Y58.976 E13.28397
G1 X220.372 Y58.977 E16.01277
G1 X220.973 Y59.005 E16.02428 F1440.000
G1 X221.536 Y59.058 E16.03508
G1 X222.711 Y59.280 E16.05794
G1 X223.314 Y59.453 E16.06994
G1 X224.495 Y59.923 E16.09424
G1 X225.075 Y60.223 E16.10673
G1 X226.171 Y60.940 E16.13178
G1 X226.690 Y61.361 E16.14454
G1 X227.627 Y62.296 E16.16986
G1 X228.048 Y62.814 E16.18262
G1 X228.768 Y63.910 E16.20769
G1 X229.070 Y64.490 E16.22020
G1 X229.542 Y65.673 E16.24455
G1 X229.717 Y66.277 E16.25658
G1 X229.942 Y67.471 E16.27981
G1 X229.997 Y68.064 E16.29119
G1 X230.024 Y68.655 E16.30250
G1 X230.024 Y211.345 E19.03079
G1 X229.997 Y211.933 E19.04203
G1 X229.943 Y212.522 E19.05334
G1 X229.720 Y213.711 E19.07647
G1 X229.547 Y214.314 E19.08847
G1 X229.077 Y215.495 E19.11276
G1 X228.777 Y216.075 E19.12526
G1 X228.059 Y217.171 E19.15031
G1 X227.639 Y217.690 E19.16307
G1 X226.704 Y218.627 E19.18839
G1 X226.186 Y219.048 E19.20115
G1 X225.090 Y219.768 E19.22622
G1 X224.510 Y220.070 E19.23873
G1 X223.327 Y220.542 E19.26308
G1 X222.723 Y220.717 E19.27511
G1 X221.529 Y220.942 E19.29833
G1 X220.936 Y220.997 E19.30972
G1 X220.345 Y221.024 E19.32103
G1 X77.655 Y221.024 E22.04931
G1 X77.064 Y220.997 E22.06062
G1 X76.471 Y220.942 E22.07201
G1 X75.277 Y220.717 E22.09524
G1 X74.673 Y220.542 E22.10726
G1 X73.490 Y220.070 E22.13161
G1 X72.910 Y219.768 E22.14412
G1 X71.814 Y219.048 E22.16919
G1 X71.296 Y218.627 E22.18195
G1 X70.361 Y217.690 E22.20727
G1 X69.940 Y217.171 E22.22003
G1 X69.223 Y216.075 E22.24508
G1 X68.923 Y215.495 E22.25758
G1 X68.453 Y214.314 E22.28187
G1 X68.280 Y213.711 E22.29387
G1 X68.057 Y212.522 E22.31700
G1 X68.003 Y211.933 E22.32831
G1 X67.976 Y211.345 E22.33956
G1 X67.976 Y68.655 E25.06784
G1 X68.003 Y68.064 E25.07915
G1 X68.058 Y67.471 E25.09054
G1 X68.283 Y66.277 E25.11376
G1 X68.458 Y65.673 E25.12579
G1 X68.930 Y64.490 E25.15014
G1 X69.232 Y63.910 E25.16265
G1 X69.952 Y62.814 E25.18772
G1 X70.278 Y62.413 E25.19761
M204 S1100
G1 E24.19761 F1500.00000
G92 E0
G1 X93.184 Y84.184 F12000.000
G1 E1.00000 F1500.00000
M204 S1000
G1 X204.816 Y84.184 E3.13444 F2760.000
G1 X204.816 Y195.816 E5.26888
G1 X93.184 Y195.816 E7.40332
G1 X93.184 Y84.259 E9.53633
M204 S1100
G1 X93.620 Y84.620 F12000.000
M204 S1000
G1 X204.380 Y84.620 E11.65411 F2160.000
G1 X204.380 Y195.380 E13.77189
G1 X93.620 Y195.380 E15.88967
G1 X93.620 Y84.695 E18.00602
M204 S1100
G1 X93.620 Y84.120 F12000.000
G1 E17.00602 F1500.00000
G92 E0
G1 X222.903 Y98.168 F12000.000
G1 E1.00000 F1500.00000
M204 S1000
G1 X222.903 Y211.314 E3.16339 F2760.000
G1 X222.857 Y211.808 E3.17287
G1 X222.721 Y212.283 E3.18232
G1 X222.484 Y212.741 E3.19217
G1 X222.153 Y213.149 E3.20223
G1 X221.745 Y213.481 E3.21230
G1 X221.287 Y213.719 E3.22216
G1 X220.810 Y213.857 E3.23164
G1 X220.314 Y213.903 E3.24118
G1 X77.686 Y213.903 E5.96826
G1 X77.190 Y213.857 E5.97780
G1 X76.713 Y213.719 E5.98728
G1 X76.255 Y213.481 E5.99714
G1 X75.847 Y213.149 E6.00720
G1 X75.516 Y212.741 E6.01726
G1 X75.279 Y212.283 E6.02711
G1 X75.143 Y211.808 E6.03657
G1 X75.097 Y211.314 E6.04605
G1 X75.097 Y68.686 E8.77313
G1 X75.143 Y68.190 E8.78267
G1 X75.281 Y67.713 E8.79215
G1 X75.519 Y67.255 E8.80202
G1 X75.851 Y66.847 E8.81208
G1 X76.259 Y66.516 E8.82214
G1 X76.717 Y66.279 E8.83199
G1 X77.192 Y66.143 E8.84145
G1 X77.686 Y66.097 E8.85093
G1 X220.340 Y66.099 E11.57851
G1 X220.807 Y66.142 E11.58748 F2760.000
G1 X221.283 Y66.279 E11.59695
G1 X221.741 Y66.516 E11.60680
G1 X222.149 Y66.847 E11.61686
G1 X222.481 Y67.255 E11.62692
G1 X222.719 Y67.713 E11.63678
G1 X222.857 Y68.190 E11.64627
G1 X222.903 Y68.686 E11.65580
G1 X222.903 Y98.093 E12.21807
M204 S1100
G1 X223.338 Y98.093 F12000.000
M204 S1000
G1 X223.338 Y211.334 E14.38327 F2160.000
G1 X223.287 Y211.888 E14.39392
G1 X223.128 Y212.445 E14.40498
G1 X222.851 Y212.980 E14.41651
G1 X222.463 Y213.459 E14.42829
G1 X221.985 Y213.847 E14.44006
G1 X221.449 Y214.126 E14.45161
G1 X220.892 Y214.287 E14.46271
G1 X220.334 Y214.338 E14.47342
G1 X77.666 Y214.338 E17.20127
G1 X77.108 Y214.287 E17.21198
G1 X76.551 Y214.126 E17.22308
G1 X76.015 Y213.847 E17.23462
G1 X75.537 Y213.459 E17.24640
G1 X75.149 Y212.980 E17.25817
G1 X74.872 Y212.445 E17.26970
G1 X74.713 Y211.888 E17.28077
G1 X74.662 Y211.334 E17.29141
G1 X74.662 Y68.666 E20.01926
G1 X74.713 Y68.108 E20.02997
G1 X74.874 Y67.551 E20.04107
G1 X75.153 Y67.015 E20.05262
G1 X75.541 Y66.537 E20.06439
G1 X76.020 Y66.149 E20.07617
G1 X76.555 Y65.872 E20.08770
G1 X77.112 Y65.713 E20.09877
G1 X77.666 Y65.662 E20.10941
G1 X220.360 Y65.663 E22.83777
G1 X220.888 Y65.712 E22.84790 F2160.000
G1 X221.445 Y65.872 E22.85898
G1 X221.980 Y66.149 E22.87051
G1 X222.459 Y66.537 E22.88228
G1 X222.847 Y67.015 E22.89406
G1 X223.126 Y67.551 E22.90560
G1 X223.287 Y68.108 E22.91670
G1 X223.338 Y68.666 E22.92741
G1 X223.338 Y98.018 E23.48862
M204 S1100
G1 X222.905 Y98.343 F12000.000
G1 X205.074 Y84.200 F12000.000
M204 S1000
G1 X222.645 Y101.771 E23.96400 F2760.000
G1 X222.645 Y102.387 E23.97579
G1 X205.074 Y84.816 E24.45116
G1 X205.074 Y85.432 E24.46295
G1 X222.645 Y103.003 E24.93833
G1 X222.645 Y103.620 E24.95012
G1 X205.074 Y86.049 E25.42549
G1 X205.074 Y86.665 E25.43728
G1 X222.645 Y104.236 E25.91266
G1 X222.645 Y104.852 E25.92445
G1 X205.074 Y87.282 E26.39982
G1 X205.074 Y87.898 E26.41161
G1 X222.645 Y105.469 E26.88699
G1 X222.645 Y106.085 E26.89878
G1 X205.074 Y88.514 E27.37415
G1 X205.074 Y89.131 E27.38595
G1 X222.645 Y106.702 E27.86132
G1 X222.645 Y107.318 E27.87311
G1 X205.074 Y89.747 E28.34848
G1 X205.074 Y90.364 E28.36028
G1 X222.645 Y107.934 E28.83565
G1 X222.645 Y108.551 E28.84744
G1 X205.074 Y90.980 E29.32281
G1 X205.074 Y91.596 E29.33461
G1 X222.645 Y109.167 E29.80998
G1 X222.645 Y109.784 E29.82177
G1 X205.074 Y92.213 E30.29715
G1 X205.074 Y92.829 E30.30894
G1 X222.645 Y110.400 E30.78431
G1 X222.645 Y111.016 E30.79610
G1 X205.074 Y93.445 E31.27148
G1 X205.074 Y94.062 E31.28327
G1 X222.645 Y111.633 E31.75864
G1 X222.645 Y112.249 E31.77043
G1 X205.074 Y94.678 E32.24581
G1 X205.074 Y95.295 E32.25760
G1 X222.645 Y112.866 E32.73297
G1 X222.645 Y113.482 E32.74476
G1 X205.074 Y95.911 E33.22014
G1 X205.074 Y96.527 E33.23193
G1 X222.645 Y114.098 E33.70730
G1 X222.645 Y114.715 E33.71909
G1 X205.074 Y97.144 E34.19447
G1 X205.074 Y97.760 E34.20626
G1 X222.645 Y115.331 E34.68163
G1 X222.645 Y115.947 E34.69342
G1 X205.074 Y98.377 E35.16880
G1 X205.074 Y98.993 E35.18059
G1 X222.645 Y116.564 E35.65596
G1 X222.645 Y117.180 E35.66776
G1 X205.074 Y99.609 E36.14313
G1 X205.074 Y100.226 E36.15492
G1 X222.645 Y117.797 E36.63029
G1 X222.645 Y118.413 E36.64209
G1 X205.074 Y100.842 E37.11746
G1 X205.074 Y101.459 E37.12925
G1 X222.645 Y119.029 E37.60462
G1 X222.645 Y119.646 E37.61642
G1 X205.074 Y102.075 E38.09179
G1 X205.074 Y102.691 E38.10358
G1 X222.645 Y120.262 E38.57896
G1 X222.645 Y120.879 E38.59075
G1 X205.074 Y103.308 E39.06612
G1 X205.074 Y103.924 E39.07791
G1 X222.645 Y121.495 E39.55329
G1 X222.645 Y122.111 E39.56508
G1 X205.074 Y104.540 E40.04045
G1 X205.074 Y105.157 E40.05224
G1 X222.645 Y122.728 E40.52762
G1 X222.645 Y123.344 E40.53941
G1 X205.074 Y105.773 E41.01478
G1 X205.074 Y106.390 E41.02657
G1 X222.645 Y123.960 E41.50195
G1 X222.645 Y124.577 E41.51374
G1 X205.074 Y107.006 E41.98911
G1 X205.074 Y107.622 E42.00090
G1 X222.645 Y125.193 E42.47628
G1 X222.645 Y125.810 E42.48807
G1 X205.074 Y108.239 E42.96344
G1 X205.074 Y108.855 E42.97524
G1 X222.645 Y126.426 E43.45061
G1 X222.645 Y127.042 E43.46240
G1 X205.074 Y109.472 E43.93777
G1 X205.074 Y110.088 E43.94957
G1 X222.645 Y127.659 E44.42494
G1 X222.645 Y128.275 E44.43673
G1 X205.074 Y110.704 E44.91210
G1 X205.074 Y111.321 E44.92390
G1 X222.645 Y128.892 E45.39927
G1 X222.645 Y129.508 E45.41106
G1 X205.074 Y111.937 E45.88644
G1 X205.074 Y112.553 E45.89823
G1 X222.645 Y130.124 E46.37360
G1 X222.645 Y130.741 E46.38539
G1 X205.074 Y113.170 E46.86077
G1 X205.074 Y113.786 E46.87256
G1 X222.645 Y131.357 E47.34793
G1 X222.645 Y131.974 E47.35972
G1 X205.074 Y114.403 E47.83510
G1 X205.074 Y115.019 E47.84689
G1 X222.645 Y132.590 E48.32226
G1 X222.645 Y133.206 E48.33405
G1 X205.074 Y115.635 E48.80943
G1 X205.074 Y116.252 E48.82122
G1 X222.645 Y133.823 E49.29659
G1 X222.645 Y134.439 E49.30838
G1 X205.074 Y116.868 E49.78376
G1 X205.074 Y117.485 E49.79555
G1 X222.645 Y135.055 E50.27092
G1 X222.645 Y135.672 E50.28271
G1 X205.074 Y118.101 E50.75809
G1 X205.074 Y118.717 E50.76988
G1 X222.645 Y136.288 E51.24525
G1 X222.645 Y136.905 E51.25705
G1 X205.074 Y119.334 E51.73242
G1 X205.074 Y119.950 E51.74421
G1 X222.645 Y137.521 E52.21958
G1 X222.645 Y138.137 E52.23138
G1 X205.074 Y120.567 E52.70675
G1 X205.074 Y121.183 E52.71854
G1 X222.645 Y138.754 E53.19391
G1 X222.645 Y139.370 E53.20571
G1 X205.074 Y121.799 E53.68108
G1 X205.074 Y122.416 E53.69287
G1 X222.645 Y139.987 E54.16825
G1 X222.645 Y140.603 E54.18004
G1 X205.074 Y123.032 E54.65541
G1 X205.074 Y123.648 E54.66720
G1 X222.645 Y141.219 E55.14258
G1 X222.645 Y141.836 E55.15437
G1 X205.074 Y124.265 E55.62974
G1 X205.074 Y124.881 E55.64153
G1 X222.645 Y142.452 E56.11691
G1 X222.645 Y143.069 E56.12870
G1 X205.074 Y125.498 E56.60407
G1 X205.074 Y126.114 E56.61586
G1 X222.645 Y143.685 E57.09124
G1 X222.645 Y144.301 E57.10303
G1 X205.074 Y126.730 E57.57840
G1 X205.074 Y127.347 E57.59019
G1 X222.645 Y144.918 E58.06557
G1 X222.645 Y145.534 E58.07736
G1 X205.074 Y127.963 E58.55273
G1 X205.074 Y128.580 E58.56452
G1 X222.645 Y146.150 E59.03990
G1 X222.645 Y146.767 E59.05169
G1 X205.074 Y129.196 E59.52706
G1 X205.074 Y129.812 E59.53886
G1 X222.645 Y147.383 E60.01423
G1 X222.645 Y148.000 E60.02602
G1 X205.074 Y130.429 E60.50139
G1 X205.074 Y131.045 E60.51319
G1 X222.645 Y148.616 E60.98856
G1 X222.645 Y149.232 E61.00035
G1 X205.074 Y131.662 E61.47572
G1 X205.074 Y132.278 E61.48752
G1 X222.645 Y149.849 E61.96289
G1 X222.645 Y150.465 E61.97468
G1 X205.074 Y132.894 E62.45006
G1 X205.074 Y133.511 E62.46185
G1 X222.645 Y151.082 E62.93722
G1 X222.645 Y151.698 E62.94901
G1 X205.074 Y134.127 E63.42439
G1 X205.074 Y134.743 E63.43618
G1 X222.645 Y152.314 E63.91155
G1 X222.645 Y152.931 E63.92334
G1 X205.074 Y135.360 E64.39872
G1 X205.074 Y135.976 E64.41051
G1 X222.645 Y153.547 E64.88588
G1 X222.645 Y154.164 E64.89767
G1 X205.074 Y136.593 E65.37305
G1 X205.074 Y137.209 E65.38484
G1 X222.645 Y154.780 E65.86021
G1 X222.645 Y155.396 E65.87200
G1 X205.074 Y137.825 E66.34738
G1 X205.074 Y138.442 E66.35917
G1 X222.645 Y156.013 E66.83454
G1 X222.645 Y156.629 E66.84634
G1 X205.074 Y139.058 E67.32171
G1 X205.074 Y139.675 E67.33350
G1 X222.645 Y157.245 E67.80887
G1 X222.645 Y157.862 E67.82067
G1 X205.074 Y140.291 E68.29604
G1 X205.074 Y140.907 E68.30783
G1 X222.645 Y158.478 E68.78320
G1 X222.645 Y159.095 E68.79500
G1 X205.074 Y141.524 E69.27037
G1 X205.074 Y142.140 E69.28216
G1 X222.645 Y159.711 E69.75754
G1 X222.645 Y160.327 E69.76933
G1 X205.074 Y142.757 E70.24470
G1 X205.074 Y143.373 E70.25649
G1 X222.645 Y160.944 E70.73187
G1 X222.645 Y161.560 E70.74366
G1 X205.074 Y143.989 E71.21903
G1 X205.074 Y144.606 E71.23082
G1 X222.645 Y162.177 E71.70620
G1 X222.645 Y162.793 E71.71799
G1 X205.074 Y145.222 E72.19336
G1 X205.074 Y145.838 E72.20515
G1 X222.645 Y163.409 E72.68053
G1 X222.645 Y164.026 E72.69232
G1 X205.074 Y146.455 E73.16769
G1 X205.074 Y147.071 E73.17948
G1 X222.645 Y164.642 E73.65486
G1 X222.645 Y165.258 E73.66665
G1 X205.074 Y147.688 E74.14202
G1 X205.074 Y148.304 E74.15381
G1 X222.645 Y165.875 E74.62919
G1 X222.645 Y166.491 E74.64098
G1 X205.074 Y148.920 E75.11635
G1 X205.074 Y149.537 E75.12815
G1 X222.645 Y167.108 E75.60352
G1 X222.645 Y167.724 E75.61531
G1 X205.074 Y150.153 E76.09068
G1 X205.074 Y150.770 E76.10248
G1 X222.645 Y168.340 E76.57785
G1 X222.645 Y168.957 E76.58964
G1 X205.074 Y151.386 E77.06501
G1 X205.074 Y152.002 E77.07681
G1 X222.645 Y169.573 E77.55218
G1 X222.645 Y170.190 E77.56397
G1 X205.074 Y152.619 E78.03935
G1 X205.074 Y153.235 E78.05114
G1 X222.645 Y170.806 E78.52651
G1 X222.645 Y171.422 E78.53830
G1 X205.074 Y153.851 E79.01368
G1 X205.074 Y154.468 E79.02547
G1 X222.645 Y172.039 E79.50084
G1 X222.645 Y172.655 E79.51263
G1 X205.074 Y155.084 E79.98801
G1 X205.074 Y155.701 E79.99980
G1 X222.645 Y173.272 E80.47517
G1 X222.645 Y173.888 E80.48696
G1 X205.074 Y156.317 E80.96234
G1 X205.074 Y156.933 E80.97413
G1 X222.645 Y174.504 E81.44950
G1 X222.645 Y175.121 E81.46129
G1 X205.074 Y157.550 E81.93667
G1 X205.074 Y158.166 E81.94846
G1 X222.645 Y175.737 E82.42383
